; generated by PrusaSlicer 2.2.0+win64 on 2020-07-14 at 23:18:49 UTC


;
;

;
;
; 

; external perimeters extrusion width = 0.45mm
; perimeters extrusion width = 0.45mm
; infill extrusion width = 0.45mm
; solid infill extrusion width = 0.45mm
; top infill extrusion width = 0.40mm
; first layer extrusion width = 0.42mm

M73 P0 R88
M201 X1250 Y1250 Z400 E5000 ; sets maximum accelerations, mm/sec^2
M203 X180 Y180 Z12 E80 ; sets maximum feedrates, mm/sec
M204 P1250 R1250 T1250 ; sets acceleration (P, T) and retract acceleration (R), mm/sec^2
M205 X8.00 Y8.00 Z2.00 E10.00 ; sets the jerk limits, mm/sec
M205 S0 T0 ; sets the minimum extruding and travel feed rate, mm/sec
M107
G90 ; use absolute coordinates
M83 ; extruder relative mode
M104 S170 ; set extruder temp for bed leveling
M140 S60 ; set bed temp
M109 R170 ; wait for bed leveling temp
M190 S60 ; wait for bed temp
G28 ; home all without mesh bed level
G29 ; mesh bed leveling 
M104 S215 ; set extruder temp
G92 E0.0
G1 Y-2.0 X179 F2400
G1 Z3 F720
M109 S215 ; wait for extruder temp

; intro line
G1 X170 F1000
G1 Z0.2 F720
G1 X110.0 E8.0 F900
M73 P0 R88
G1 X40.0 E10.0 F700
G92 E0.0

M221 S95 ; set flow
G21 ; set units to millimeters
G90 ; use absolute coordinates
M83 ; use relative distances for extrusion
M900 K0.2 ; Filament gcode
;BEFORE_LAYER_CHANGE
G92 E0.0
;0.2


G1 Z0.200 F9000.000
;AFTER_LAYER_CHANGE
;0.2
G1 E-3.20000 F4200.00000
G1 Z0.400 F9000.000
G1 X62.679 Y85.434
G1 Z0.200
G1 E3.20000 F2400.00000
M204 S800
G1 F1200.000
G1 X63.336 Y85.004 E0.02460
G1 X64.087 Y84.777 E0.02460
G1 X115.504 Y84.746 E1.61216
G1 X116.030 Y84.797 E0.01656
G1 X116.532 Y84.946 E0.01643
G1 X117.000 Y85.190 E0.01656
G1 X117.411 Y85.516 E0.01643
G1 X117.754 Y85.917 E0.01656
G1 X118.013 Y86.373 E0.01643
G1 X118.182 Y86.873 E0.01656
G1 X118.252 Y87.393 E0.01643
G1 X118.254 Y92.553 E0.16181
G1 X118.139 Y93.288 E0.02333
G1 X117.816 Y93.990 E0.02422
G1 X117.308 Y94.577 E0.02434
G1 X116.657 Y94.999 E0.02434
G1 X115.913 Y95.223 E0.02434
G1 X64.381 Y95.252 E1.61575
G1 X63.460 Y95.050 E0.02955
G1 X62.661 Y94.551 E0.02955
G1 X62.076 Y93.807 E0.02968
G1 X61.777 Y92.913 E0.02955
G1 X61.746 Y87.467 E0.17076
G1 X61.851 Y86.747 E0.02282
G1 X62.171 Y86.031 E0.02460
G1 X62.640 Y85.479 E0.02272
M204 S1250
G1 X62.918 Y85.725 F9000.000
M204 S800
G1 F1200.000
G1 X63.495 Y85.346 E0.02166
G1 X64.161 Y85.147 E0.02178
G1 X115.504 Y85.123 E1.60982
G1 X116.392 Y85.297 E0.02837
G1 X117.153 Y85.792 E0.02849
G1 X117.672 Y86.534 E0.02837
G1 X117.876 Y87.419 E0.02849
G1 X117.877 Y92.534 E0.16039
G1 X117.792 Y93.129 E0.01882
G1 X117.517 Y93.758 E0.02154
G1 X117.073 Y94.282 E0.02154
G1 X116.498 Y94.658 E0.02154
G1 X115.839 Y94.853 E0.02154
G1 X64.412 Y94.875 E1.61244
G1 X63.608 Y94.703 E0.02579
G1 X62.911 Y94.268 E0.02579
G1 X62.404 Y93.620 E0.02579
G1 X62.147 Y92.839 E0.02579
G1 X62.123 Y87.477 E0.16812
G1 X62.201 Y86.897 E0.01835
G1 X62.473 Y86.258 E0.02178
G1 X62.880 Y85.771 E0.01990
M204 S1250
G1 E-2.24000 F4200.00000
G1 F7200.000
G1 X63.495 Y85.346 E-0.41476
G1 X64.161 Y85.147 E-0.38490
G1 X64.364 Y85.147 E-0.11234
G1 E-0.04800 F4200.00000
G1 Z0.400 F9000.000
G1 X65.287 Y88.287
G1 Z0.200
G1 E3.20000 F2400.00000
M204 S800
G1 F1200.000
G1 X114.713 Y88.287 E1.54971
G1 X114.713 Y91.713 E0.10741
G1 X65.287 Y91.713 E1.54971
G1 X65.287 Y88.347 E0.10553
M204 S1250
G1 X64.910 Y87.910 F9000.000
M204 S800
G1 F1200.000
G1 X115.090 Y87.910 E1.57336
G1 X115.090 Y92.090 E0.13106
G1 X64.910 Y92.090 E1.57336
G1 X64.910 Y87.970 E0.12918
M204 S1250
G1 X65.310 Y87.921 F9000.000
G1 E-2.24000 F4200.00000
G1 F7200.000
G1 X66.556 Y87.968 E-0.91200
G1 E-0.04800 F4200.00000
G1 Z0.400 F9000.000
G1 X114.600 Y89.166
G1 Z0.200
G1 E3.20000 F2400.00000
M204 S800
G1 F1200.000
G1 X114.004 Y88.570 E0.02653
G1 X113.468 Y88.570 E0.01686
G1 X114.430 Y89.532 E0.04281
G1 X114.430 Y90.067 E0.01686
G1 X112.933 Y88.570 E0.06666
G1 X112.398 Y88.570 E0.01686
G1 X114.430 Y90.602 E0.09050
G1 X114.430 Y91.138 E0.01686
G1 X111.862 Y88.570 E0.11434
G1 X111.327 Y88.570 E0.01686
G1 X114.187 Y91.430 E0.12735
G1 X113.651 Y91.430 E0.01686
G1 X110.791 Y88.570 E0.12735
G1 X110.256 Y88.570 E0.01686
G1 X113.116 Y91.430 E0.12735
G1 X112.581 Y91.430 E0.01686
G1 X109.720 Y88.570 E0.12735
G1 X109.185 Y88.570 E0.01686
G1 X112.045 Y91.430 E0.12735
G1 X111.510 Y91.430 E0.01686
G1 X108.649 Y88.570 E0.12735
G1 X108.114 Y88.570 E0.01686
G1 X110.974 Y91.430 E0.12735
G1 X110.439 Y91.430 E0.01686
G1 X107.578 Y88.570 E0.12735
G1 X107.043 Y88.570 E0.01686
G1 X109.903 Y91.430 E0.12735
G1 X109.368 Y91.430 E0.01686
G1 X106.508 Y88.570 E0.12735
G1 X105.972 Y88.570 E0.01686
G1 X108.832 Y91.430 E0.12735
G1 X108.297 Y91.430 E0.01686
G1 X105.437 Y88.570 E0.12735
G1 X104.901 Y88.570 E0.01686
G1 X107.761 Y91.430 E0.12735
G1 X107.226 Y91.430 E0.01686
G1 X104.366 Y88.570 E0.12735
G1 X103.830 Y88.570 E0.01686
G1 X106.691 Y91.430 E0.12735
G1 X106.155 Y91.430 E0.01686
G1 X103.295 Y88.570 E0.12735
G1 X102.759 Y88.570 E0.01686
G1 X105.620 Y91.430 E0.12735
G1 X105.084 Y91.430 E0.01686
G1 X102.224 Y88.570 E0.12735
G1 X101.688 Y88.570 E0.01686
G1 X104.549 Y91.430 E0.12735
G1 X104.013 Y91.430 E0.01686
G1 X101.153 Y88.570 E0.12735
G1 X100.618 Y88.570 E0.01686
G1 X103.478 Y91.430 E0.12735
G1 X102.942 Y91.430 E0.01686
G1 X100.082 Y88.570 E0.12735
G1 X99.547 Y88.570 E0.01686
G1 X102.407 Y91.430 E0.12735
G1 X101.871 Y91.430 E0.01686
G1 X99.011 Y88.570 E0.12735
G1 X98.476 Y88.570 E0.01686
G1 X101.336 Y91.430 E0.12735
G1 X100.801 Y91.430 E0.01686
G1 X97.940 Y88.570 E0.12735
G1 X97.405 Y88.570 E0.01686
G1 X100.265 Y91.430 E0.12735
G1 X99.730 Y91.430 E0.01686
G1 X96.869 Y88.570 E0.12735
G1 X96.334 Y88.570 E0.01686
G1 X99.194 Y91.430 E0.12735
G1 X98.659 Y91.430 E0.01686
G1 X95.798 Y88.570 E0.12735
G1 X95.263 Y88.570 E0.01686
G1 X98.123 Y91.430 E0.12735
G1 X97.588 Y91.430 E0.01686
G1 X94.728 Y88.570 E0.12735
G1 X94.192 Y88.570 E0.01686
G1 X97.052 Y91.430 E0.12735
G1 X96.517 Y91.430 E0.01686
G1 X93.657 Y88.570 E0.12735
G1 X93.121 Y88.570 E0.01686
G1 X95.981 Y91.430 E0.12735
G1 X95.446 Y91.430 E0.01686
G1 X92.586 Y88.570 E0.12735
G1 X92.050 Y88.570 E0.01686
G1 X94.911 Y91.430 E0.12735
G1 X94.375 Y91.430 E0.01686
G1 X91.515 Y88.570 E0.12735
G1 X90.979 Y88.570 E0.01686
G1 X93.840 Y91.430 E0.12735
G1 X93.304 Y91.430 E0.01686
G1 X90.444 Y88.570 E0.12735
G1 X89.908 Y88.570 E0.01686
G1 X92.769 Y91.430 E0.12735
G1 X92.233 Y91.430 E0.01686
G1 X89.373 Y88.570 E0.12735
G1 X88.838 Y88.570 E0.01686
G1 X91.698 Y91.430 E0.12735
G1 X91.162 Y91.430 E0.01686
G1 X88.302 Y88.570 E0.12735
G1 X87.767 Y88.570 E0.01686
G1 X90.627 Y91.430 E0.12735
G1 X90.091 Y91.430 E0.01686
G1 X87.231 Y88.570 E0.12735
G1 X86.696 Y88.570 E0.01686
G1 X89.556 Y91.430 E0.12735
G1 X89.021 Y91.430 E0.01686
G1 X86.160 Y88.570 E0.12735
G1 X85.625 Y88.570 E0.01686
G1 X88.485 Y91.430 E0.12735
G1 X87.950 Y91.430 E0.01686
G1 X85.089 Y88.570 E0.12735
G1 X84.554 Y88.570 E0.01686
G1 X87.414 Y91.430 E0.12735
G1 X86.879 Y91.430 E0.01686
G1 X84.018 Y88.570 E0.12735
G1 X83.483 Y88.570 E0.01686
G1 X86.343 Y91.430 E0.12735
G1 X85.808 Y91.430 E0.01686
G1 X82.948 Y88.570 E0.12735
G1 X82.412 Y88.570 E0.01686
G1 X85.272 Y91.430 E0.12735
G1 X84.737 Y91.430 E0.01686
G1 X81.877 Y88.570 E0.12735
G1 X81.341 Y88.570 E0.01686
G1 X84.201 Y91.430 E0.12735
G1 X83.666 Y91.430 E0.01686
G1 X80.806 Y88.570 E0.12735
G1 X80.270 Y88.570 E0.01686
G1 X83.131 Y91.430 E0.12735
G1 X82.595 Y91.430 E0.01686
G1 X79.735 Y88.570 E0.12735
G1 X79.199 Y88.570 E0.01686
G1 X82.060 Y91.430 E0.12735
G1 X81.524 Y91.430 E0.01686
G1 X78.664 Y88.570 E0.12735
G1 X78.128 Y88.570 E0.01686
G1 X80.989 Y91.430 E0.12735
G1 X80.453 Y91.430 E0.01686
G1 X77.593 Y88.570 E0.12735
G1 X77.058 Y88.570 E0.01686
G1 X79.918 Y91.430 E0.12735
G1 X79.382 Y91.430 E0.01686
G1 X76.522 Y88.570 E0.12735
G1 X75.987 Y88.570 E0.01686
G1 X78.847 Y91.430 E0.12735
G1 X78.311 Y91.430 E0.01686
G1 X75.451 Y88.570 E0.12735
G1 X74.916 Y88.570 E0.01686
G1 X77.776 Y91.430 E0.12735
G1 X77.241 Y91.430 E0.01686
G1 X74.380 Y88.570 E0.12735
G1 X73.845 Y88.570 E0.01686
G1 X76.705 Y91.430 E0.12735
G1 X76.170 Y91.430 E0.01686
G1 X73.309 Y88.570 E0.12735
G1 X72.774 Y88.570 E0.01686
G1 X75.634 Y91.430 E0.12735
G1 X75.099 Y91.430 E0.01686
G1 X72.238 Y88.570 E0.12735
G1 X71.703 Y88.570 E0.01686
G1 X74.563 Y91.430 E0.12735
G1 X74.028 Y91.430 E0.01686
G1 X71.168 Y88.570 E0.12735
G1 X70.632 Y88.570 E0.01686
G1 X73.492 Y91.430 E0.12735
G1 X72.957 Y91.430 E0.01686
G1 X70.097 Y88.570 E0.12735
G1 X69.561 Y88.570 E0.01686
G1 X72.421 Y91.430 E0.12735
G1 X71.886 Y91.430 E0.01686
G1 X69.026 Y88.570 E0.12735
G1 X68.490 Y88.570 E0.01686
G1 X71.350 Y91.430 E0.12735
G1 X70.815 Y91.430 E0.01686
G1 X67.955 Y88.570 E0.12735
G1 X67.419 Y88.570 E0.01686
G1 X70.280 Y91.430 E0.12735
G1 X69.744 Y91.430 E0.01686
G1 X66.884 Y88.570 E0.12735
G1 X66.348 Y88.570 E0.01686
G1 X69.209 Y91.430 E0.12735
G1 X68.673 Y91.430 E0.01686
G1 X65.813 Y88.570 E0.12735
G1 X65.570 Y88.570 E0.00765
G1 X65.570 Y88.862 E0.00920
G1 X68.138 Y91.430 E0.11433
G1 X67.602 Y91.430 E0.01686
G1 X65.570 Y89.398 E0.09049
G1 X65.570 Y89.933 E0.01686
G1 X67.067 Y91.430 E0.06665
G1 X66.531 Y91.430 E0.01686
G1 X65.570 Y90.469 E0.04281
G1 X65.570 Y91.004 E0.01686
G1 X66.166 Y91.600 E0.02653
M204 S1250
M106 S255
;BEFORE_LAYER_CHANGE
G92 E0.0
;0.35


G1 Z0.350 F9000.000
;AFTER_LAYER_CHANGE
;0.35
G1 E-3.20000 F4200.00000
G1 Z0.550 F9000.000
G1 X63.460 Y95.050
G1 Z0.350
G1 E3.20000 F2400.00000
G1 X62.661 Y94.551 E0.02279
G1 X62.076 Y93.807 E0.02289
G1 X61.777 Y92.913 E0.02279
G1 X61.746 Y87.467 E0.13171
G1 X61.851 Y86.747 E0.01760
G1 X62.171 Y86.031 E0.01897
G1 X62.679 Y85.434 E0.01897
G1 X63.336 Y85.004 E0.01897
G1 X64.087 Y84.777 E0.01897
G1 X115.504 Y84.746 E1.24352
G1 X116.030 Y84.797 E0.01277
G1 X116.532 Y84.946 E0.01267
G1 X117.000 Y85.190 E0.01277
G1 X117.411 Y85.516 E0.01267
G1 X117.754 Y85.917 E0.01277
G1 X118.013 Y86.373 E0.01267
G1 X118.182 Y86.873 E0.01277
G1 X118.252 Y87.393 E0.01267
G1 X118.254 Y92.553 E0.12481
G1 X118.139 Y93.288 E0.01799
G1 X117.816 Y93.990 E0.01868
G1 X117.308 Y94.577 E0.01878
G1 X116.657 Y94.999 E0.01878
G1 X115.913 Y95.223 E0.01878
G1 X64.381 Y95.252 E1.24630
G1 X63.519 Y95.063 E0.02134
G1 X63.608 Y94.703 F9000.000
G1 F2400.000
G1 X62.911 Y94.268 E0.01989
G1 X62.404 Y93.620 E0.01989
G1 X62.147 Y92.839 E0.01989
G1 X62.123 Y87.477 E0.12968
G1 X62.201 Y86.897 E0.01415
G1 X62.473 Y86.258 E0.01680
G1 X62.918 Y85.725 E0.01680
G1 X63.495 Y85.346 E0.01671
G1 X64.161 Y85.147 E0.01680
G1 X115.504 Y85.123 E1.24172
G1 X116.392 Y85.297 E0.02188
G1 X117.153 Y85.792 E0.02197
G1 X117.672 Y86.534 E0.02188
G1 X117.876 Y87.419 E0.02197
G1 X117.877 Y92.534 E0.12371
G1 X117.792 Y93.129 E0.01452
G1 X117.517 Y93.758 E0.01662
G1 X117.073 Y94.282 E0.01662
G1 X116.498 Y94.658 E0.01662
G1 X115.839 Y94.853 E0.01662
G1 X64.412 Y94.875 E1.24374
M73 P1 R87
G1 X63.667 Y94.716 E0.01844
G1 E-2.24000 F4200.00000
G1 F7200.000
G1 X62.911 Y94.268 E-0.48714
G1 X62.438 Y93.664 E-0.42486
G1 E-0.04800 F4200.00000
G1 Z0.550 F9000.000
G1 X65.143 Y91.857
G1 Z0.350
G1 E3.20000 F2400.00000
M204 S800
G1 X65.143 Y88.143 E0.09678
G1 X114.857 Y88.143 E1.29535
G1 X114.857 Y91.857 E0.09678
G1 X65.203 Y91.857 E1.29378
M204 S1250
G1 X64.725 Y92.275 F9000.000
M204 S800
G1 F1800.000
G1 X64.725 Y87.725 E0.11855
G1 X115.275 Y87.725 E1.31712
G1 X115.275 Y92.275 E0.11855
G1 X64.785 Y92.275 E1.31556
M204 S1250
G1 X64.915 Y91.923 F9000.000
G1 E-2.24000 F4200.00000
G1 F7200.000
G1 X64.763 Y90.629 E-0.91200
G1 E-0.04800 F4200.00000
G1 Z0.550 F9000.000
G1 X113.880 Y91.732
G1 Z0.350
G1 E3.20000 F2400.00000
M204 S1000
G1 F3975
G1 X114.544 Y91.068 E0.02465
G1 X114.544 Y90.472 E0.01564
G1 X113.472 Y91.544 E0.03979
G1 X112.877 Y91.544 E0.01564
G1 X114.544 Y89.877 E0.06192
G1 X114.544 Y89.281 E0.01564
G1 X112.281 Y91.544 E0.08404
G1 X111.686 Y91.544 E0.01564
G1 X114.544 Y88.686 E0.10617
G1 X114.544 Y88.456 E0.00603
G1 X114.178 Y88.456 E0.00962
G1 X111.090 Y91.544 E0.11469
G1 X110.494 Y91.544 E0.01564
G1 X113.582 Y88.456 E0.11469
G1 X112.986 Y88.456 E0.01564
G1 X109.899 Y91.544 E0.11469
G1 X109.303 Y91.544 E0.01564
G1 X112.391 Y88.456 E0.11469
G1 X111.795 Y88.456 E0.01564
G1 X108.707 Y91.544 E0.11469
G1 X108.112 Y91.544 E0.01564
G1 X111.200 Y88.456 E0.11469
G1 X110.604 Y88.456 E0.01564
G1 X107.516 Y91.544 E0.11469
G1 X106.921 Y91.544 E0.01564
G1 X110.008 Y88.456 E0.11469
G1 X109.413 Y88.456 E0.01564
G1 X106.325 Y91.544 E0.11469
G1 X105.729 Y91.544 E0.01564
G1 X108.817 Y88.456 E0.11469
G1 X108.221 Y88.456 E0.01564
G1 X105.134 Y91.544 E0.11469
G1 X104.538 Y91.544 E0.01564
G1 X107.626 Y88.456 E0.11469
G1 X107.030 Y88.456 E0.01564
G1 X103.942 Y91.544 E0.11469
G1 X103.347 Y91.544 E0.01564
G1 X106.434 Y88.456 E0.11469
G1 X105.839 Y88.456 E0.01564
G1 X102.751 Y91.544 E0.11469
G1 X102.156 Y91.544 E0.01564
G1 X105.243 Y88.456 E0.11469
G1 X104.648 Y88.456 E0.01564
G1 X101.560 Y91.544 E0.11469
G1 X100.964 Y91.544 E0.01564
G1 X104.052 Y88.456 E0.11469
G1 X103.456 Y88.456 E0.01564
G1 X100.369 Y91.544 E0.11469
G1 X99.773 Y91.544 E0.01564
G1 X102.861 Y88.456 E0.11469
G1 X102.265 Y88.456 E0.01564
G1 X99.177 Y91.544 E0.11469
G1 X98.582 Y91.544 E0.01564
G1 X101.669 Y88.456 E0.11469
G1 X101.074 Y88.456 E0.01564
G1 X97.986 Y91.544 E0.11469
G1 X97.391 Y91.544 E0.01564
G1 X100.478 Y88.456 E0.11469
G1 X99.883 Y88.456 E0.01564
G1 X96.795 Y91.544 E0.11469
G1 X96.199 Y91.544 E0.01564
G1 X99.287 Y88.456 E0.11469
G1 X98.691 Y88.456 E0.01564
G1 X95.604 Y91.544 E0.11469
G1 X95.008 Y91.544 E0.01564
G1 X98.096 Y88.456 E0.11469
G1 X97.500 Y88.456 E0.01564
G1 X94.412 Y91.544 E0.11469
G1 X93.817 Y91.544 E0.01564
G1 X96.904 Y88.456 E0.11469
G1 X96.309 Y88.456 E0.01564
G1 X93.221 Y91.544 E0.11469
G1 X92.625 Y91.544 E0.01564
G1 X95.713 Y88.456 E0.11469
G1 X95.118 Y88.456 E0.01564
G1 X92.030 Y91.544 E0.11469
G1 X91.434 Y91.544 E0.01564
G1 X94.522 Y88.456 E0.11469
G1 X93.926 Y88.456 E0.01564
G1 X90.839 Y91.544 E0.11469
G1 X90.243 Y91.544 E0.01564
G1 X93.331 Y88.456 E0.11469
G1 X92.735 Y88.456 E0.01564
G1 X89.647 Y91.544 E0.11469
G1 X89.052 Y91.544 E0.01564
G1 X92.139 Y88.456 E0.11469
G1 X91.544 Y88.456 E0.01564
G1 X88.456 Y91.544 E0.11469
G1 X87.860 Y91.544 E0.01564
G1 X90.948 Y88.456 E0.11469
G1 X90.353 Y88.456 E0.01564
G1 X87.265 Y91.544 E0.11469
G1 X86.669 Y91.544 E0.01564
G1 X89.757 Y88.456 E0.11469
G1 X89.161 Y88.456 E0.01564
G1 X86.074 Y91.544 E0.11469
G1 X85.478 Y91.544 E0.01564
G1 X88.566 Y88.456 E0.11469
G1 X87.970 Y88.456 E0.01564
G1 X84.882 Y91.544 E0.11469
G1 X84.287 Y91.544 E0.01564
G1 X87.374 Y88.456 E0.11469
G1 X86.779 Y88.456 E0.01564
G1 X83.691 Y91.544 E0.11469
G1 X83.095 Y91.544 E0.01564
G1 X86.183 Y88.456 E0.11469
G1 X85.587 Y88.456 E0.01564
G1 X82.500 Y91.544 E0.11469
G1 X81.904 Y91.544 E0.01564
G1 X84.992 Y88.456 E0.11469
G1 X84.396 Y88.456 E0.01564
G1 X81.309 Y91.544 E0.11469
G1 X80.713 Y91.544 E0.01564
G1 X83.801 Y88.456 E0.11469
G1 X83.205 Y88.456 E0.01564
G1 X80.117 Y91.544 E0.11469
G1 X79.522 Y91.544 E0.01564
G1 X82.609 Y88.456 E0.11469
G1 X82.014 Y88.456 E0.01564
G1 X78.926 Y91.544 E0.11469
G1 X78.330 Y91.544 E0.01564
G1 X81.418 Y88.456 E0.11469
G1 X80.822 Y88.456 E0.01564
G1 X77.735 Y91.544 E0.11469
G1 X77.139 Y91.544 E0.01564
G1 X80.227 Y88.456 E0.11469
G1 X79.631 Y88.456 E0.01564
G1 X76.544 Y91.544 E0.11469
G1 X75.948 Y91.544 E0.01564
G1 X79.036 Y88.456 E0.11469
G1 X78.440 Y88.456 E0.01564
G1 X75.352 Y91.544 E0.11469
G1 X74.757 Y91.544 E0.01564
G1 X77.844 Y88.456 E0.11469
G1 X77.249 Y88.456 E0.01564
G1 X74.161 Y91.544 E0.11469
G1 X73.565 Y91.544 E0.01564
G1 X76.653 Y88.456 E0.11469
G1 X76.057 Y88.456 E0.01564
G1 X72.970 Y91.544 E0.11469
G1 X72.374 Y91.544 E0.01564
G1 X75.462 Y88.456 E0.11469
G1 X74.866 Y88.456 E0.01564
G1 X71.778 Y91.544 E0.11469
G1 X71.183 Y91.544 E0.01564
G1 X74.271 Y88.456 E0.11469
G1 X73.675 Y88.456 E0.01564
G1 X70.587 Y91.544 E0.11469
G1 X69.992 Y91.544 E0.01564
G1 X73.079 Y88.456 E0.11469
G1 X72.484 Y88.456 E0.01564
G1 X69.396 Y91.544 E0.11469
G1 X68.800 Y91.544 E0.01564
G1 X71.888 Y88.456 E0.11469
G1 X71.292 Y88.456 E0.01564
G1 X68.205 Y91.544 E0.11469
G1 X67.609 Y91.544 E0.01564
G1 X70.697 Y88.456 E0.11469
G1 X70.101 Y88.456 E0.01564
