; generated by PrusaSlicer 2.2.0+win64 on 2020-07-21 at 14:14:51 UTC


;
;

;
;
; 

; external perimeters extrusion width = 0.45mm
; perimeters extrusion width = 0.45mm
; infill extrusion width = 0.45mm
; solid infill extrusion width = 0.45mm
; top infill extrusion width = 0.40mm
; first layer extrusion width = 0.42mm

M73 P0 R241
M201 X1250 Y1250 Z400 E5000 ; sets maximum accelerations, mm/sec^2
M203 X180 Y180 Z12 E80 ; sets maximum feedrates, mm/sec
M204 P1250 R1250 T1250 ; sets acceleration (P, T) and retract acceleration (R), mm/sec^2
M205 X8.00 Y8.00 Z2.00 E10.00 ; sets the jerk limits, mm/sec
M205 S0 T0 ; sets the minimum extruding and travel feed rate, mm/sec
M107
G90 ; use absolute coordinates
M83 ; extruder relative mode
M104 S170 ; set extruder temp for bed leveling
M140 S60 ; set bed temp
M109 R170 ; wait for bed leveling temp
M190 S60 ; wait for bed temp
G28 ; home all without mesh bed level
G29 ; mesh bed leveling 
M104 S215 ; set extruder temp
G92 E0.0
G1 Y-2.0 X179 F2400
G1 Z3 F720
M109 S215 ; wait for extruder temp

; intro line
G1 X170 F1000
G1 Z0.2 F720
G1 X110.0 E8.0 F900
M73 P0 R241
G1 X40.0 E10.0 F700
G92 E0.0

M221 S95 ; set flow
G21 ; set units to millimeters
G90 ; use absolute coordinates
M83 ; use relative distances for extrusion
M900 K0.2 ; Filament gcode
;BEFORE_LAYER_CHANGE
G92 E0.0
;0.2


G1 Z0.200 F9000.000
;AFTER_LAYER_CHANGE
;0.2
G1 E-3.20000 F4200.00000
G1 Z0.400 F9000.000
G1 X7.468 Y79.859
G1 Z0.200
G1 E3.20000 F2400.00000
M204 S800
G1 F1200.000
G1 X8.233 Y79.638 E0.02496
G1 X171.504 Y79.623 E5.11925
G1 X172.406 Y79.802 E0.02884
G1 X173.170 Y80.308 E0.02872
G1 X173.687 Y81.069 E0.02884
G1 X173.877 Y81.968 E0.02884
G1 X173.862 Y98.270 E0.51112
G1 X173.640 Y99.035 E0.02496
G1 X173.179 Y99.683 E0.02496
G1 X172.532 Y100.141 E0.02484
G1 X171.767 Y100.362 E0.02496
G1 X8.470 Y100.377 E5.12008
G1 X7.629 Y100.212 E0.02684
G1 X6.905 Y99.763 E0.02673
G1 X6.384 Y99.083 E0.02684
G1 X6.138 Y98.267 E0.02673
G1 X6.138 Y81.734 E0.51839
G1 X6.358 Y80.969 E0.02496
G1 X6.819 Y80.320 E0.02496
G1 X7.419 Y79.893 E0.02308
M204 S1250
G1 E-2.24000 F4200.00000
G1 F7200.000
G1 X8.233 Y79.638 E-0.47270
G1 X9.026 Y79.638 E-0.43930
G1 E-0.04800 F4200.00000
G1 Z0.400 F9000.000
G1 X9.287 Y82.787
G1 Z0.200
G1 E3.20000 F2400.00000
M204 S800
G1 F1200.000
G1 X170.713 Y82.787 E5.06139
G1 X170.713 Y97.213 E0.45231
G1 X9.287 Y97.213 E5.06139
G1 X9.287 Y82.847 E0.45043
M204 S1250
G1 X8.910 Y82.410 F9000.000
M204 S800
G1 F1200.000
G1 X171.090 Y82.410 E5.08504
G1 X171.090 Y97.590 E0.47596
G1 X8.910 Y97.590 E5.08504
M73 P0 R240
G1 X8.910 Y82.470 E0.47408
M204 S1250
G1 X9.310 Y82.422 F9000.000
G1 E-2.24000 F4200.00000
G1 F7200.000
G1 X10.556 Y82.469 E-0.91200
G1 E-0.04800 F4200.00000
G1 Z0.400 F9000.000
G1 X170.600 Y83.663
G1 Z0.200
G1 E3.20000 F2400.00000
M204 S800
G1 F1200.000
G1 X170.007 Y83.070 E0.02629
G1 X169.474 Y83.070 E0.01673
G1 X170.430 Y84.026 E0.04241
G1 X170.430 Y84.560 E0.01673
G1 X168.940 Y83.070 E0.06607
G1 X168.407 Y83.070 E0.01673
G1 X170.430 Y85.093 E0.08972
G1 X170.430 Y85.626 E0.01673
G1 X167.874 Y83.070 E0.11338
G1 X167.340 Y83.070 E0.01673
G1 X170.430 Y86.160 E0.13703
G1 X170.430 Y86.693 E0.01673
G1 X166.807 Y83.070 E0.16068
G1 X166.274 Y83.070 E0.01673
G1 X170.430 Y87.226 E0.18434
G1 X170.430 Y87.760 E0.01673
G1 X165.740 Y83.070 E0.20799
G1 X165.207 Y83.070 E0.01673
G1 X170.430 Y88.293 E0.23164
G1 X170.430 Y88.826 E0.01673
G1 X164.674 Y83.070 E0.25530
G1 X164.140 Y83.070 E0.01673
G1 X170.430 Y89.360 E0.27895
G1 X170.430 Y89.893 E0.01673
G1 X163.607 Y83.070 E0.30261
G1 X163.073 Y83.070 E0.01673
G1 X170.430 Y90.427 E0.32626
G1 X170.430 Y90.960 E0.01673
G1 X162.540 Y83.070 E0.34991
G1 X162.007 Y83.070 E0.01673
G1 X170.430 Y91.493 E0.37357
G1 X170.430 Y92.027 E0.01673
G1 X161.473 Y83.070 E0.39722
G1 X160.940 Y83.070 E0.01673
G1 X170.430 Y92.560 E0.42087
G1 X170.430 Y93.093 E0.01673
G1 X160.407 Y83.070 E0.44453
G1 X159.873 Y83.070 E0.01673
G1 X170.430 Y93.627 E0.46818
G1 X170.430 Y94.160 E0.01673
G1 X159.340 Y83.070 E0.49183
G1 X158.807 Y83.070 E0.01673
G1 X170.430 Y94.693 E0.51549
G1 X170.430 Y95.227 E0.01673
G1 X158.273 Y83.070 E0.53914
G1 X157.740 Y83.070 E0.01673
G1 X170.430 Y95.760 E0.56280
G1 X170.430 Y96.293 E0.01673
G1 X157.207 Y83.070 E0.58645
G1 X156.673 Y83.070 E0.01673
G1 X170.430 Y96.827 E0.61010
G1 X170.430 Y96.930 E0.00324
G1 X170.000 Y96.930 E0.01349
G1 X156.140 Y83.070 E0.61468
G1 X155.606 Y83.070 E0.01673
G1 X169.467 Y96.930 E0.61468
G1 X168.933 Y96.930 E0.01673
G1 X155.073 Y83.070 E0.61468
G1 X154.540 Y83.070 E0.01673
G1 X168.400 Y96.930 E0.61468
G1 X167.867 Y96.930 E0.01673
G1 X154.006 Y83.070 E0.61468
G1 X153.473 Y83.070 E0.01673
G1 X167.333 Y96.930 E0.61468
G1 X166.800 Y96.930 E0.01673
G1 X152.940 Y83.070 E0.61468
G1 X152.406 Y83.070 E0.01673
G1 X166.267 Y96.930 E0.61468
G1 X165.733 Y96.930 E0.01673
G1 X151.873 Y83.070 E0.61468
G1 X151.340 Y83.070 E0.01673
G1 X165.200 Y96.930 E0.61468
G1 X164.667 Y96.930 E0.01673
G1 X150.806 Y83.070 E0.61468
G1 X150.273 Y83.070 E0.01673
G1 X164.133 Y96.930 E0.61468
G1 X163.600 Y96.930 E0.01673
G1 X149.740 Y83.070 E0.61468
G1 X149.206 Y83.070 E0.01673
G1 X163.066 Y96.930 E0.61468
G1 X162.533 Y96.930 E0.01673
G1 X148.673 Y83.070 E0.61468
G1 X148.139 Y83.070 E0.01673
G1 X162.000 Y96.930 E0.61468
G1 X161.466 Y96.930 E0.01673
G1 X147.606 Y83.070 E0.61468
G1 X147.073 Y83.070 E0.01673
G1 X160.933 Y96.930 E0.61468
G1 X160.400 Y96.930 E0.01673
G1 X146.539 Y83.070 E0.61468
G1 X146.006 Y83.070 E0.01673
G1 X159.866 Y96.930 E0.61468
G1 X159.333 Y96.930 E0.01673
G1 X145.473 Y83.070 E0.61468
G1 X144.939 Y83.070 E0.01673
G1 X158.800 Y96.930 E0.61468
G1 X158.266 Y96.930 E0.01673
G1 X144.406 Y83.070 E0.61468
G1 X143.873 Y83.070 E0.01673
G1 X157.733 Y96.930 E0.61468
G1 X157.200 Y96.930 E0.01673
G1 X143.339 Y83.070 E0.61468
G1 X142.806 Y83.070 E0.01673
G1 X156.666 Y96.930 E0.61468
G1 X156.133 Y96.930 E0.01673
G1 X142.273 Y83.070 E0.61468
G1 X141.739 Y83.070 E0.01673
G1 X155.599 Y96.930 E0.61468
G1 X155.066 Y96.930 E0.01673
G1 X141.206 Y83.070 E0.61468
G1 X140.672 Y83.070 E0.01673
G1 X154.533 Y96.930 E0.61468
G1 X153.999 Y96.930 E0.01673
G1 X140.139 Y83.070 E0.61468
G1 X139.606 Y83.070 E0.01673
G1 X153.466 Y96.930 E0.61468
G1 X152.933 Y96.930 E0.01673
G1 X139.072 Y83.070 E0.61468
G1 X138.539 Y83.070 E0.01673
G1 X152.399 Y96.930 E0.61468
G1 X151.866 Y96.930 E0.01673
G1 X138.006 Y83.070 E0.61468
G1 X137.472 Y83.070 E0.01673
G1 X151.333 Y96.930 E0.61468
G1 X150.799 Y96.930 E0.01673
G1 X136.939 Y83.070 E0.61468
G1 X136.406 Y83.070 E0.01673
G1 X150.266 Y96.930 E0.61468
G1 X149.733 Y96.930 E0.01673
G1 X135.872 Y83.070 E0.61468
G1 X135.339 Y83.070 E0.01673
G1 X149.199 Y96.930 E0.61468
G1 X148.666 Y96.930 E0.01673
G1 X134.806 Y83.070 E0.61468
G1 X134.272 Y83.070 E0.01673
G1 X148.132 Y96.930 E0.61468
G1 X147.599 Y96.930 E0.01673
G1 X133.739 Y83.070 E0.61468
M73 P0 R239
G1 X133.205 Y83.070 E0.01673
G1 X147.066 Y96.930 E0.61468
G1 X146.532 Y96.930 E0.01673
G1 X132.672 Y83.070 E0.61468
G1 X132.139 Y83.070 E0.01673
G1 X145.999 Y96.930 E0.61468
G1 X145.466 Y96.930 E0.01673
G1 X131.605 Y83.070 E0.61468
G1 X131.072 Y83.070 E0.01673
G1 X144.932 Y96.930 E0.61468
G1 X144.399 Y96.930 E0.01673
G1 X130.539 Y83.070 E0.61468
G1 X130.005 Y83.070 E0.01673
G1 X143.866 Y96.930 E0.61468
G1 X143.332 Y96.930 E0.01673
G1 X129.472 Y83.070 E0.61468
G1 X128.939 Y83.070 E0.01673
G1 X142.799 Y96.930 E0.61468
G1 X142.266 Y96.930 E0.01673
G1 X128.405 Y83.070 E0.61468
G1 X127.872 Y83.070 E0.01673
G1 X141.732 Y96.930 E0.61468
G1 X141.199 Y96.930 E0.01673
G1 X127.339 Y83.070 E0.61468
G1 X126.805 Y83.070 E0.01673
G1 X140.665 Y96.930 E0.61468
G1 X140.132 Y96.930 E0.01673
G1 X126.272 Y83.070 E0.61468
G1 X125.739 Y83.070 E0.01673
G1 X139.599 Y96.930 E0.61468
G1 X139.065 Y96.930 E0.01673
G1 X125.205 Y83.070 E0.61468
G1 X124.672 Y83.070 E0.01673
G1 X138.532 Y96.930 E0.61468
G1 X137.999 Y96.930 E0.01673
G1 X124.138 Y83.070 E0.61468
G1 X123.605 Y83.070 E0.01673
G1 X137.465 Y96.930 E0.61468
G1 X136.932 Y96.930 E0.01673
G1 X123.072 Y83.070 E0.61468
G1 X122.538 Y83.070 E0.01673
G1 X136.399 Y96.930 E0.61468
G1 X135.865 Y96.930 E0.01673
G1 X122.005 Y83.070 E0.61468
G1 X121.472 Y83.070 E0.01673
G1 X135.332 Y96.930 E0.61468
G1 X134.799 Y96.930 E0.01673
G1 X120.938 Y83.070 E0.61468
G1 X120.405 Y83.070 E0.01673
G1 X134.265 Y96.930 E0.61468
G1 X133.732 Y96.930 E0.01673
G1 X119.872 Y83.070 E0.61468
G1 X119.338 Y83.070 E0.01673
G1 X133.198 Y96.930 E0.61468
G1 X132.665 Y96.930 E0.01673
G1 X118.805 Y83.070 E0.61468
G1 X118.272 Y83.070 E0.01673
G1 X132.132 Y96.930 E0.61468
G1 X131.598 Y96.930 E0.01673
G1 X117.738 Y83.070 E0.61468
G1 X117.205 Y83.070 E0.01673
G1 X131.065 Y96.930 E0.61468
G1 X130.532 Y96.930 E0.01673
G1 X116.671 Y83.070 E0.61468
G1 X116.138 Y83.070 E0.01673
G1 X129.998 Y96.930 E0.61468
G1 X129.465 Y96.930 E0.01673
G1 X115.605 Y83.070 E0.61468
G1 X115.071 Y83.070 E0.01673
G1 X128.932 Y96.930 E0.61468
G1 X128.398 Y96.930 E0.01673
G1 X114.538 Y83.070 E0.61468
G1 X114.005 Y83.070 E0.01673
G1 X127.865 Y96.930 E0.61468
G1 X127.332 Y96.930 E0.01673
G1 X113.471 Y83.070 E0.61468
G1 X112.938 Y83.070 E0.01673
G1 X126.798 Y96.930 E0.61468
G1 X126.265 Y96.930 E0.01673
G1 X112.405 Y83.070 E0.61468
G1 X111.871 Y83.070 E0.01673
G1 X125.731 Y96.930 E0.61468
G1 X125.198 Y96.930 E0.01673
G1 X111.338 Y83.070 E0.61468
G1 X110.805 Y83.070 E0.01673
G1 X124.665 Y96.930 E0.61468
G1 X124.131 Y96.930 E0.01673
G1 X110.271 Y83.070 E0.61468
G1 X109.738 Y83.070 E0.01673
G1 X123.598 Y96.930 E0.61468
G1 X123.065 Y96.930 E0.01673
G1 X109.204 Y83.070 E0.61468
G1 X108.671 Y83.070 E0.01673
G1 X122.531 Y96.930 E0.61468
G1 X121.998 Y96.930 E0.01673
G1 X108.138 Y83.070 E0.61468
G1 X107.604 Y83.070 E0.01673
G1 X121.465 Y96.930 E0.61468
G1 X120.931 Y96.930 E0.01673
G1 X107.071 Y83.070 E0.61468
G1 X106.538 Y83.070 E0.01673
G1 X120.398 Y96.930 E0.61468
G1 X119.865 Y96.930 E0.01673
G1 X106.004 Y83.070 E0.61468
G1 X105.471 Y83.070 E0.01673
G1 X119.331 Y96.930 E0.61468
G1 X118.798 Y96.930 E0.01673
G1 X104.938 Y83.070 E0.61468
G1 X104.404 Y83.070 E0.01673
G1 X118.264 Y96.930 E0.61468
G1 X117.731 Y96.930 E0.01673
G1 X103.871 Y83.070 E0.61468
G1 X103.338 Y83.070 E0.01673
G1 X117.198 Y96.930 E0.61468
G1 X116.664 Y96.930 E0.01673
G1 X102.804 Y83.070 E0.61468
G1 X102.271 Y83.070 E0.01673
G1 X116.131 Y96.930 E0.61468
M73 P1 R238
G1 X115.598 Y96.930 E0.01673
G1 X101.737 Y83.070 E0.61468
G1 X101.204 Y83.070 E0.01673
G1 X115.064 Y96.930 E0.61468
G1 X114.531 Y96.930 E0.01673
G1 X100.671 Y83.070 E0.61468
G1 X100.137 Y83.070 E0.01673
G1 X113.998 Y96.930 E0.61468
G1 X113.464 Y96.930 E0.01673
G1 X99.604 Y83.070 E0.61468
G1 X99.071 Y83.070 E0.01673
G1 X112.931 Y96.930 E0.61468
G1 X112.398 Y96.930 E0.01673
G1 X98.537 Y83.070 E0.61468
G1 X98.004 Y83.070 E0.01673
G1 X111.864 Y96.930 E0.61468
G1 X111.331 Y96.930 E0.01673
G1 X97.471 Y83.070 E0.61468
G1 X96.937 Y83.070 E0.01673
G1 X110.797 Y96.930 E0.61468
G1 X110.264 Y96.930 E0.01673
G1 X96.404 Y83.070 E0.61468
G1 X95.871 Y83.070 E0.01673
G1 X109.731 Y96.930 E0.61468
G1 X109.197 Y96.930 E0.01673
G1 X95.337 Y83.070 E0.61468
G1 X94.804 Y83.070 E0.01673
G1 X108.664 Y96.930 E0.61468
G1 X108.131 Y96.930 E0.01673
G1 X94.270 Y83.070 E0.61468
G1 X93.737 Y83.070 E0.01673
G1 X107.597 Y96.930 E0.61468
G1 X107.064 Y96.930 E0.01673
G1 X93.204 Y83.070 E0.61468
G1 X92.670 Y83.070 E0.01673
G1 X106.531 Y96.930 E0.61468
G1 X105.997 Y96.930 E0.01673
G1 X92.137 Y83.070 E0.61468
G1 X91.604 Y83.070 E0.01673
G1 X105.464 Y96.930 E0.61468
G1 X104.931 Y96.930 E0.01673
G1 X91.070 Y83.070 E0.61468
G1 X90.537 Y83.070 E0.01673
G1 X104.397 Y96.930 E0.61468
G1 X103.864 Y96.930 E0.01673
G1 X90.004 Y83.070 E0.61468
G1 X89.470 Y83.070 E0.01673
G1 X103.331 Y96.930 E0.61468
G1 X102.797 Y96.930 E0.01673
G1 X88.937 Y83.070 E0.61468
G1 X88.404 Y83.070 E0.01673
G1 X102.264 Y96.930 E0.61468
G1 X101.730 Y96.930 E0.01673
G1 X87.870 Y83.070 E0.61468
G1 X87.337 Y83.070 E0.01673
G1 X101.197 Y96.930 E0.61468
G1 X100.664 Y96.930 E0.01673
G1 X86.803 Y83.070 E0.61468
G1 X86.270 Y83.070 E0.01673
G1 X100.130 Y96.930 E0.61468
G1 X99.597 Y96.930 E0.01673
G1 X85.737 Y83.070 E0.61468
G1 X85.203 Y83.070 E0.01673
G1 X99.064 Y96.930 E0.61468
G1 X98.530 Y96.930 E0.01673
G1 X84.670 Y83.070 E0.61468
G1 X84.137 Y83.070 E0.01673
G1 X97.997 Y96.930 E0.61468
G1 X97.464 Y96.930 E0.01673
G1 X83.603 Y83.070 E0.61468
G1 X83.070 Y83.070 E0.01673
G1 X96.930 Y96.930 E0.61468
G1 X96.397 Y96.930 E0.01673
G1 X82.537 Y83.070 E0.61468
G1 X82.003 Y83.070 E0.01673
G1 X95.864 Y96.930 E0.61468
G1 X95.330 Y96.930 E0.01673
G1 X81.470 Y83.070 E0.61468
G1 X80.937 Y83.070 E0.01673
G1 X94.797 Y96.930 E0.61468
G1 X94.263 Y96.930 E0.01673
G1 X80.403 Y83.070 E0.61468
G1 X79.870 Y83.070 E0.01673
G1 X93.730 Y96.930 E0.61468
G1 X93.197 Y96.930 E0.01673
G1 X79.336 Y83.070 E0.61468
G1 X78.803 Y83.070 E0.01673
G1 X92.663 Y96.930 E0.61468
G1 X92.130 Y96.930 E0.01673
G1 X78.270 Y83.070 E0.61468
G1 X77.736 Y83.070 E0.01673
G1 X91.597 Y96.930 E0.61468
G1 X91.063 Y96.930 E0.01673
G1 X77.203 Y83.070 E0.61468
G1 X76.670 Y83.070 E0.01673
G1 X90.530 Y96.930 E0.61468
G1 X89.997 Y96.930 E0.01673
G1 X76.136 Y83.070 E0.61468
G1 X75.603 Y83.070 E0.01673
G1 X89.463 Y96.930 E0.61468
G1 X88.930 Y96.930 E0.01673
G1 X75.070 Y83.070 E0.61468
G1 X74.536 Y83.070 E0.01673
G1 X88.397 Y96.930 E0.61468
G1 X87.863 Y96.930 E0.01673
G1 X74.003 Y83.070 E0.61468
G1 X73.470 Y83.070 E0.01673
G1 X87.330 Y96.930 E0.61468
G1 X86.796 Y96.930 E0.01673
G1 X72.936 Y83.070 E0.61468
G1 X72.403 Y83.070 E0.01673
G1 X86.263 Y96.930 E0.61468
G1 X85.730 Y96.930 E0.01673
G1 X71.869 Y83.070 E0.61468
G1 X71.336 Y83.070 E0.01673
G1 X85.196 Y96.930 E0.61468
G1 X84.663 Y96.930 E0.01673
G1 X70.803 Y83.070 E0.61468
M73 P1 R237
G1 X70.269 Y83.070 E0.01673
G1 X84.130 Y96.930 E0.61468
G1 X83.596 Y96.930 E0.01673
G1 X69.736 Y83.070 E0.61468
G1 X69.203 Y83.070 E0.01673
G1 X83.063 Y96.930 E0.61468
G1 X82.530 Y96.930 E0.01673
G1 X68.669 Y83.070 E0.61468
G1 X68.136 Y83.070 E0.01673
G1 X81.996 Y96.930 E0.61468
G1 X81.463 Y96.930 E0.01673
G1 X67.603 Y83.070 E0.61468
G1 X67.069 Y83.070 E0.01673
G1 X80.930 Y96.930 E0.61468
G1 X80.396 Y96.930 E0.01673
G1 X66.536 Y83.070 E0.61468
G1 X66.003 Y83.070 E0.01673
G1 X79.863 Y96.930 E0.61468
G1 X79.329 Y96.930 E0.01673
G1 X65.469 Y83.070 E0.61468
G1 X64.936 Y83.070 E0.01673
G1 X78.796 Y96.930 E0.61468
G1 X78.263 Y96.930 E0.01673
G1 X64.403 Y83.070 E0.61468
G1 X63.869 Y83.070 E0.01673
G1 X77.729 Y96.930 E0.61468
G1 X77.196 Y96.930 E0.01673
G1 X63.336 Y83.070 E0.61468
G1 X62.802 Y83.070 E0.01673
G1 X76.663 Y96.930 E0.61468
G1 X76.129 Y96.930 E0.01673
G1 X62.269 Y83.070 E0.61468
G1 X61.736 Y83.070 E0.01673
G1 X75.596 Y96.930 E0.61468
G1 X75.063 Y96.930 E0.01673
G1 X61.202 Y83.070 E0.61468
G1 X60.669 Y83.070 E0.01673
G1 X74.529 Y96.930 E0.61468
G1 X73.996 Y96.930 E0.01673
G1 X60.136 Y83.070 E0.61468
G1 X59.602 Y83.070 E0.01673
G1 X73.463 Y96.930 E0.61468
G1 X72.929 Y96.930 E0.01673
G1 X59.069 Y83.070 E0.61468
G1 X58.536 Y83.070 E0.01673
G1 X72.396 Y96.930 E0.61468
G1 X71.862 Y96.930 E0.01673
G1 X58.002 Y83.070 E0.61468
G1 X57.469 Y83.070 E0.01673
G1 X71.329 Y96.930 E0.61468
G1 X70.796 Y96.930 E0.01673
G1 X56.936 Y83.070 E0.61468
G1 X56.402 Y83.070 E0.01673
G1 X70.262 Y96.930 E0.61468
G1 X69.729 Y96.930 E0.01673
G1 X55.869 Y83.070 E0.61468
G1 X55.335 Y83.070 E0.01673
G1 X69.196 Y96.930 E0.61468
G1 X68.662 Y96.930 E0.01673
G1 X54.802 Y83.070 E0.61468
G1 X54.269 Y83.070 E0.01673
G1 X68.129 Y96.930 E0.61468
G1 X67.596 Y96.930 E0.01673
G1 X53.735 Y83.070 E0.61468
G1 X53.202 Y83.070 E0.01673
G1 X67.062 Y96.930 E0.61468
G1 X66.529 Y96.930 E0.01673
G1 X52.669 Y83.070 E0.61468
G1 X52.135 Y83.070 E0.01673
G1 X65.996 Y96.930 E0.61468
G1 X65.462 Y96.930 E0.01673
G1 X51.602 Y83.070 E0.61468
G1 X51.069 Y83.070 E0.01673
G1 X64.929 Y96.930 E0.61468
G1 X64.395 Y96.930 E0.01673
G1 X50.535 Y83.070 E0.61468
G1 X50.002 Y83.070 E0.01673
G1 X63.862 Y96.930 E0.61468
G1 X63.329 Y96.930 E0.01673
G1 X49.469 Y83.070 E0.61468
G1 X48.935 Y83.070 E0.01673
G1 X62.795 Y96.930 E0.61468
G1 X62.262 Y96.930 E0.01673
G1 X48.402 Y83.070 E0.61468
G1 X47.868 Y83.070 E0.01673
