; generated by PrusaSlicer 2.2.0+win64 on 2020-07-14 at 23:23:13 UTC


;
;

;
;
; 

; external perimeters extrusion width = 0.45mm
; perimeters extrusion width = 0.45mm
; infill extrusion width = 0.45mm
; solid infill extrusion width = 0.45mm
; top infill extrusion width = 0.40mm
; first layer extrusion width = 0.42mm

M73 P0 R230
M201 X1250 Y1250 Z400 E5000 ; sets maximum accelerations, mm/sec^2
M203 X180 Y180 Z12 E80 ; sets maximum feedrates, mm/sec
M204 P1250 R1250 T1250 ; sets acceleration (P, T) and retract acceleration (R), mm/sec^2
M205 X8.00 Y8.00 Z2.00 E10.00 ; sets the jerk limits, mm/sec
M205 S0 T0 ; sets the minimum extruding and travel feed rate, mm/sec
M107
G90 ; use absolute coordinates
M83 ; extruder relative mode
M104 S170 ; set extruder temp for bed leveling
M140 S60 ; set bed temp
M109 R170 ; wait for bed leveling temp
M190 S60 ; wait for bed temp
G28 ; home all without mesh bed level
G29 ; mesh bed leveling 
M104 S215 ; set extruder temp
G92 E0.0
G1 Y-2.0 X179 F2400
G1 Z3 F720
M109 S215 ; wait for extruder temp

; intro line
G1 X170 F1000
G1 Z0.2 F720
G1 X110.0 E8.0 F900
M73 P0 R229
G1 X40.0 E10.0 F700
G92 E0.0

M221 S95 ; set flow
G21 ; set units to millimeters
G90 ; use absolute coordinates
M83 ; use relative distances for extrusion
M900 K0.2 ; Filament gcode
;BEFORE_LAYER_CHANGE
G92 E0.0
;0.2


G1 Z0.200 F9000.000
;AFTER_LAYER_CHANGE
;0.2
G1 E-3.20000 F4200.00000
G1 Z0.400 F9000.000
G1 X8.980 Y79.615
G1 Z0.200
G1 E3.20000 F2400.00000
M204 S800
G1 F1200.000
G1 X9.747 Y79.389 E0.02508
G1 X169.978 Y79.373 E5.02393
G1 X170.887 Y79.555 E0.02907
G1 X171.655 Y80.069 E0.02896
G1 X172.170 Y80.840 E0.02907
G1 X172.351 Y81.745 E0.02896
G1 X172.351 Y85.284 E0.11097
G1 X172.109 Y98.542 E0.41575
G1 X171.886 Y99.294 E0.02461
G1 X171.426 Y99.935 E0.02473
G1 X170.783 Y100.391 E0.02473
G1 X170.029 Y100.611 E0.02461
G1 X10.220 Y100.627 E5.01073
G1 X9.383 Y100.463 E0.02673
G1 X8.658 Y100.015 E0.02673
G1 X8.139 Y99.343 E0.02661
G1 X7.889 Y98.528 E0.02673
G1 X7.649 Y85.283 E0.41536
G1 X7.660 Y81.518 E0.11806
G1 X7.872 Y80.743 E0.02520
G1 X8.328 Y80.086 E0.02508
G1 X8.931 Y79.650 E0.02332
M204 S1250
G1 E-2.24000 F4200.00000
G1 F7200.000
G1 X9.747 Y79.389 E-0.47475
G1 X10.536 Y79.389 E-0.43725
G1 E-0.04800 F4200.00000
G1 Z0.400 F9000.000
G1 X10.813 Y82.537
G1 Z0.200
G1 E3.20000 F2400.00000
M204 S800
G1 F1200.000
G1 X169.187 Y82.537 E4.96572
G1 X169.187 Y84.463 E0.06038
G1 X168.963 Y84.463 E0.00703
G1 X168.963 Y97.463 E0.40761
G1 X11.037 Y97.463 E4.95165
G1 X11.037 Y84.463 E0.40761
G1 X10.813 Y84.463 E0.00703
G1 X10.813 Y82.597 E0.05850
M204 S1250
G1 E-2.24000 F4200.00000
G1 F7200.000
G1 X12.459 Y82.596 E-0.91200
G1 E-0.04800 F4200.00000
G1 Z0.400 F9000.000
G1 X169.340 Y84.840
G1 Z0.200
G1 E3.20000 F2400.00000
M204 S800
G1 F1200.000
G1 X169.340 Y97.840 E0.40761
G1 X10.660 Y97.840 E4.97530
G1 X10.660 Y84.840 E0.40761
G1 X10.436 Y84.840 E0.00703
G1 X10.436 Y82.160 E0.08403
G1 X169.564 Y82.160 E4.98936
M73 P0 R228
G1 X169.564 Y84.840 E0.08403
G1 X169.400 Y84.840 E0.00515
M204 S1250
G1 X168.988 Y85.030 F9000.000
G1 E-2.24000 F4200.00000
G1 F7200.000
G1 X169.392 Y86.486 E-0.91200
G1 E-0.04800 F4200.00000
G1 Z0.400 F9000.000
G1 X11.150 Y96.585
G1 Z0.200
G1 E3.20000 F2400.00000
M204 S800
G1 F1200.000
G1 X11.745 Y97.180 E0.02645
G1 X12.280 Y97.180 E0.01681
G1 X11.320 Y96.220 E0.04268
G1 X11.320 Y95.686 E0.01681
G1 X12.814 Y97.180 E0.06645
G1 X13.349 Y97.180 E0.01681
G1 X11.320 Y95.151 E0.09022
G1 X11.320 Y94.616 E0.01681
G1 X13.884 Y97.180 E0.11399
G1 X14.418 Y97.180 E0.01681
G1 X11.320 Y94.082 E0.13776
G1 X11.320 Y93.547 E0.01681
G1 X14.953 Y97.180 E0.16153
G1 X15.488 Y97.180 E0.01681
G1 X11.320 Y93.012 E0.18530
G1 X11.320 Y92.478 E0.01681
G1 X16.022 Y97.180 E0.20907
G1 X16.557 Y97.180 E0.01681
G1 X11.320 Y91.943 E0.23284
G1 X11.320 Y91.408 E0.01681
G1 X17.092 Y97.180 E0.25661
G1 X17.627 Y97.180 E0.01681
G1 X11.320 Y90.873 E0.28038
G1 X11.320 Y90.339 E0.01681
G1 X18.161 Y97.180 E0.30415
G1 X18.696 Y97.180 E0.01681
G1 X11.320 Y89.804 E0.32792
G1 X11.320 Y89.269 E0.01681
G1 X19.231 Y97.180 E0.35169
G1 X19.765 Y97.180 E0.01681
G1 X11.320 Y88.735 E0.37546
G1 X11.320 Y88.200 E0.01681
G1 X20.300 Y97.180 E0.39923
G1 X20.835 Y97.180 E0.01681
G1 X11.320 Y87.665 E0.42300
G1 X11.320 Y87.131 E0.01681
G1 X21.369 Y97.180 E0.44677
G1 X21.904 Y97.180 E0.01681
G1 X11.320 Y86.596 E0.47054
G1 X11.320 Y86.061 E0.01681
G1 X22.439 Y97.180 E0.49431
G1 X22.973 Y97.180 E0.01681
G1 X11.320 Y85.527 E0.51808
G1 X11.320 Y84.992 E0.01681
G1 X23.508 Y97.180 E0.54185
G1 X24.043 Y97.180 E0.01681
G1 X11.320 Y84.457 E0.56562
G1 X11.320 Y84.180 E0.00872
G1 X11.096 Y84.180 E0.00705
G1 X11.096 Y83.699 E0.01514
G1 X24.577 Y97.180 E0.59937
G1 X25.112 Y97.180 E0.01681
G1 X11.096 Y83.164 E0.62314
G1 X11.096 Y82.820 E0.01081
G1 X11.286 Y82.820 E0.00600
G1 X25.647 Y97.180 E0.63843
G1 X26.181 Y97.180 E0.01681
G1 X11.821 Y82.820 E0.63843
G1 X12.356 Y82.820 E0.01681
G1 X26.716 Y97.180 E0.63843
G1 X27.251 Y97.180 E0.01681
G1 X12.890 Y82.820 E0.63843
G1 X13.425 Y82.820 E0.01681
G1 X27.785 Y97.180 E0.63843
G1 X28.320 Y97.180 E0.01681
G1 X13.960 Y82.820 E0.63843
G1 X14.494 Y82.820 E0.01681
G1 X28.855 Y97.180 E0.63843
G1 X29.389 Y97.180 E0.01681
G1 X15.029 Y82.820 E0.63843
G1 X15.564 Y82.820 E0.01681
G1 X29.924 Y97.180 E0.63843
G1 X30.459 Y97.180 E0.01681
G1 X16.098 Y82.820 E0.63843
G1 X16.633 Y82.820 E0.01681
G1 X30.993 Y97.180 E0.63843
G1 X31.528 Y97.180 E0.01681
G1 X17.168 Y82.820 E0.63843
G1 X17.702 Y82.820 E0.01681
G1 X32.063 Y97.180 E0.63843
G1 X32.597 Y97.180 E0.01681
G1 X18.237 Y82.820 E0.63843
G1 X18.772 Y82.820 E0.01681
G1 X33.132 Y97.180 E0.63843
G1 X33.667 Y97.180 E0.01681
G1 X19.306 Y82.820 E0.63843
G1 X19.841 Y82.820 E0.01681
G1 X34.201 Y97.180 E0.63843
G1 X34.736 Y97.180 E0.01681
G1 X20.376 Y82.820 E0.63843
G1 X20.910 Y82.820 E0.01681
G1 X35.271 Y97.180 E0.63843
G1 X35.805 Y97.180 E0.01681
G1 X21.445 Y82.820 E0.63843
G1 X21.980 Y82.820 E0.01681
G1 X36.340 Y97.180 E0.63843
G1 X36.875 Y97.180 E0.01681
G1 X22.514 Y82.820 E0.63843
G1 X23.049 Y82.820 E0.01681
G1 X37.409 Y97.180 E0.63843
G1 X37.944 Y97.180 E0.01681
G1 X23.584 Y82.820 E0.63843
G1 X24.118 Y82.820 E0.01681
G1 X38.479 Y97.180 E0.63843
G1 X39.013 Y97.180 E0.01681
G1 X24.653 Y82.820 E0.63843
G1 X25.188 Y82.820 E0.01681
G1 X39.548 Y97.180 E0.63843
G1 X40.083 Y97.180 E0.01681
G1 X25.722 Y82.820 E0.63843
G1 X26.257 Y82.820 E0.01681
G1 X40.617 Y97.180 E0.63843
G1 X41.152 Y97.180 E0.01681
G1 X26.792 Y82.820 E0.63843
G1 X27.326 Y82.820 E0.01681
G1 X41.687 Y97.180 E0.63843
G1 X42.221 Y97.180 E0.01681
G1 X27.861 Y82.820 E0.63843
G1 X28.396 Y82.820 E0.01681
G1 X42.756 Y97.180 E0.63843
G1 X43.291 Y97.180 E0.01681
G1 X28.930 Y82.820 E0.63843
G1 X29.465 Y82.820 E0.01681
G1 X43.825 Y97.180 E0.63843
G1 X44.360 Y97.180 E0.01681
G1 X30.000 Y82.820 E0.63843
G1 X30.534 Y82.820 E0.01681
G1 X44.895 Y97.180 E0.63843
G1 X45.429 Y97.180 E0.01681
G1 X31.069 Y82.820 E0.63843
G1 X31.604 Y82.820 E0.01681
G1 X45.964 Y97.180 E0.63843
G1 X46.499 Y97.180 E0.01681
G1 X32.138 Y82.820 E0.63843
G1 X32.673 Y82.820 E0.01681
G1 X47.033 Y97.180 E0.63843
G1 X47.568 Y97.180 E0.01681
G1 X33.208 Y82.820 E0.63843
M73 P0 R227
G1 X33.742 Y82.820 E0.01681
G1 X48.103 Y97.180 E0.63843
G1 X48.637 Y97.180 E0.01681
G1 X34.277 Y82.820 E0.63843
G1 X34.812 Y82.820 E0.01681
G1 X49.172 Y97.180 E0.63843
G1 X49.707 Y97.180 E0.01681
G1 X35.346 Y82.820 E0.63843
G1 X35.881 Y82.820 E0.01681
G1 X50.241 Y97.180 E0.63843
G1 X50.776 Y97.180 E0.01681
G1 X36.416 Y82.820 E0.63843
G1 X36.950 Y82.820 E0.01681
G1 X51.311 Y97.180 E0.63843
G1 X51.845 Y97.180 E0.01681
G1 X37.485 Y82.820 E0.63843
G1 X38.020 Y82.820 E0.01681
G1 X52.380 Y97.180 E0.63843
G1 X52.915 Y97.180 E0.01681
G1 X38.555 Y82.820 E0.63843
G1 X39.089 Y82.820 E0.01681
G1 X53.449 Y97.180 E0.63843
G1 X53.984 Y97.180 E0.01681
G1 X39.624 Y82.820 E0.63843
G1 X40.159 Y82.820 E0.01681
G1 X54.519 Y97.180 E0.63843
G1 X55.053 Y97.180 E0.01681
G1 X40.693 Y82.820 E0.63843
G1 X41.228 Y82.820 E0.01681
G1 X55.588 Y97.180 E0.63843
G1 X56.123 Y97.180 E0.01681
G1 X41.763 Y82.820 E0.63843
G1 X42.297 Y82.820 E0.01681
G1 X56.657 Y97.180 E0.63843
G1 X57.192 Y97.180 E0.01681
G1 X42.832 Y82.820 E0.63843
G1 X43.367 Y82.820 E0.01681
G1 X57.727 Y97.180 E0.63843
G1 X58.261 Y97.180 E0.01681
G1 X43.901 Y82.820 E0.63843
G1 X44.436 Y82.820 E0.01681
G1 X58.796 Y97.180 E0.63843
G1 X59.331 Y97.180 E0.01681
G1 X44.971 Y82.820 E0.63843
G1 X45.505 Y82.820 E0.01681
G1 X59.865 Y97.180 E0.63843
G1 X60.400 Y97.180 E0.01681
G1 X46.040 Y82.820 E0.63843
G1 X46.575 Y82.820 E0.01681
G1 X60.935 Y97.180 E0.63843
G1 X61.469 Y97.180 E0.01681
G1 X47.109 Y82.820 E0.63843
G1 X47.644 Y82.820 E0.01681
G1 X62.004 Y97.180 E0.63843
G1 X62.539 Y97.180 E0.01681
G1 X48.179 Y82.820 E0.63843
G1 X48.713 Y82.820 E0.01681
G1 X63.073 Y97.180 E0.63843
G1 X63.608 Y97.180 E0.01681
G1 X49.248 Y82.820 E0.63843
G1 X49.783 Y82.820 E0.01681
G1 X64.143 Y97.180 E0.63843
G1 X64.677 Y97.180 E0.01681
G1 X50.317 Y82.820 E0.63843
G1 X50.852 Y82.820 E0.01681
G1 X65.212 Y97.180 E0.63843
G1 X65.747 Y97.180 E0.01681
G1 X51.387 Y82.820 E0.63843
G1 X51.921 Y82.820 E0.01681
G1 X66.282 Y97.180 E0.63843
G1 X66.816 Y97.180 E0.01681
G1 X52.456 Y82.820 E0.63843
G1 X52.991 Y82.820 E0.01681
G1 X67.351 Y97.180 E0.63843
G1 X67.886 Y97.180 E0.01681
G1 X53.525 Y82.820 E0.63843
G1 X54.060 Y82.820 E0.01681
G1 X68.420 Y97.180 E0.63843
G1 X68.955 Y97.180 E0.01681
G1 X54.595 Y82.820 E0.63843
G1 X55.129 Y82.820 E0.01681
G1 X69.490 Y97.180 E0.63843
G1 X70.024 Y97.180 E0.01681
G1 X55.664 Y82.820 E0.63843
G1 X56.199 Y82.820 E0.01681
G1 X70.559 Y97.180 E0.63843
G1 X71.094 Y97.180 E0.01681
G1 X56.733 Y82.820 E0.63843
G1 X57.268 Y82.820 E0.01681
G1 X71.628 Y97.180 E0.63843
G1 X72.163 Y97.180 E0.01681
G1 X57.803 Y82.820 E0.63843
G1 X58.337 Y82.820 E0.01681
G1 X72.698 Y97.180 E0.63843
G1 X73.232 Y97.180 E0.01681
G1 X58.872 Y82.820 E0.63843
G1 X59.407 Y82.820 E0.01681
G1 X73.767 Y97.180 E0.63843
G1 X74.302 Y97.180 E0.01681
G1 X59.941 Y82.820 E0.63843
G1 X60.476 Y82.820 E0.01681
G1 X74.836 Y97.180 E0.63843
G1 X75.371 Y97.180 E0.01681
G1 X61.011 Y82.820 E0.63843
G1 X61.545 Y82.820 E0.01681
G1 X75.906 Y97.180 E0.63843
G1 X76.440 Y97.180 E0.01681
G1 X62.080 Y82.820 E0.63843
G1 X62.615 Y82.820 E0.01681
G1 X76.975 Y97.180 E0.63843
G1 X77.510 Y97.180 E0.01681
G1 X63.149 Y82.820 E0.63843
G1 X63.684 Y82.820 E0.01681
G1 X78.044 Y97.180 E0.63843
M73 P1 R226
G1 X78.579 Y97.180 E0.01681
G1 X64.219 Y82.820 E0.63843
G1 X64.753 Y82.820 E0.01681
G1 X79.114 Y97.180 E0.63843
G1 X79.648 Y97.180 E0.01681
G1 X65.288 Y82.820 E0.63843
G1 X65.823 Y82.820 E0.01681
G1 X80.183 Y97.180 E0.63843
G1 X80.718 Y97.180 E0.01681
G1 X66.357 Y82.820 E0.63843
G1 X66.892 Y82.820 E0.01681
G1 X81.252 Y97.180 E0.63843
G1 X81.787 Y97.180 E0.01681
G1 X67.427 Y82.820 E0.63843
G1 X67.961 Y82.820 E0.01681
G1 X82.322 Y97.180 E0.63843
G1 X82.856 Y97.180 E0.01681
G1 X68.496 Y82.820 E0.63843
G1 X69.031 Y82.820 E0.01681
G1 X83.391 Y97.180 E0.63843
G1 X83.926 Y97.180 E0.01681
G1 X69.565 Y82.820 E0.63843
G1 X70.100 Y82.820 E0.01681
G1 X84.460 Y97.180 E0.63843
G1 X84.995 Y97.180 E0.01681
G1 X70.635 Y82.820 E0.63843
G1 X71.169 Y82.820 E0.01681
G1 X85.530 Y97.180 E0.63843
G1 X86.064 Y97.180 E0.01681
G1 X71.704 Y82.820 E0.63843
G1 X72.239 Y82.820 E0.01681
G1 X86.599 Y97.180 E0.63843
G1 X87.134 Y97.180 E0.01681
G1 X72.773 Y82.820 E0.63843
G1 X73.308 Y82.820 E0.01681
G1 X87.668 Y97.180 E0.63843
G1 X88.203 Y97.180 E0.01681
G1 X73.843 Y82.820 E0.63843
G1 X74.377 Y82.820 E0.01681
G1 X88.738 Y97.180 E0.63843
G1 X89.272 Y97.180 E0.01681
G1 X74.912 Y82.820 E0.63843
G1 X75.447 Y82.820 E0.01681
G1 X89.807 Y97.180 E0.63843
G1 X90.342 Y97.180 E0.01681
G1 X75.981 Y82.820 E0.63843
G1 X76.516 Y82.820 E0.01681
G1 X90.876 Y97.180 E0.63843
G1 X91.411 Y97.180 E0.01681
G1 X77.051 Y82.820 E0.63843
G1 X77.585 Y82.820 E0.01681
G1 X91.946 Y97.180 E0.63843
G1 X92.480 Y97.180 E0.01681
G1 X78.120 Y82.820 E0.63843
G1 X78.655 Y82.820 E0.01681
G1 X93.015 Y97.180 E0.63843
G1 X93.550 Y97.180 E0.01681
G1 X79.189 Y82.820 E0.63843
G1 X79.724 Y82.820 E0.01681
G1 X94.084 Y97.180 E0.63843
G1 X94.619 Y97.180 E0.01681
G1 X80.259 Y82.820 E0.63843
G1 X80.793 Y82.820 E0.01681
G1 X95.154 Y97.180 E0.63843
G1 X95.688 Y97.180 E0.01681
G1 X81.328 Y82.820 E0.63843
G1 X81.863 Y82.820 E0.01681
G1 X96.223 Y97.180 E0.63843
G1 X96.758 Y97.180 E0.01681
G1 X82.397 Y82.820 E0.63843
G1 X82.932 Y82.820 E0.01681
G1 X97.292 Y97.180 E0.63843
G1 X97.827 Y97.180 E0.01681
G1 X83.467 Y82.820 E0.63843
G1 X84.001 Y82.820 E0.01681
G1 X98.362 Y97.180 E0.63843
G1 X98.896 Y97.180 E0.01681
G1 X84.536 Y82.820 E0.63843
G1 X85.071 Y82.820 E0.01681
G1 X99.431 Y97.180 E0.63843
G1 X99.966 Y97.180 E0.01681
G1 X85.605 Y82.820 E0.63843
G1 X86.140 Y82.820 E0.01681
G1 X100.500 Y97.180 E0.63843
G1 X101.035 Y97.180 E0.01681
G1 X86.675 Y82.820 E0.63843
G1 X87.210 Y82.820 E0.01681
G1 X101.570 Y97.180 E0.63843
G1 X102.104 Y97.180 E0.01681
G1 X87.744 Y82.820 E0.63843
G1 X88.279 Y82.820 E0.01681
G1 X102.639 Y97.180 E0.63843
G1 X103.174 Y97.180 E0.01681
G1 X88.814 Y82.820 E0.63843
G1 X89.348 Y82.820 E0.01681
G1 X103.708 Y97.180 E0.63843
G1 X104.243 Y97.180 E0.01681
G1 X89.883 Y82.820 E0.63843
G1 X90.418 Y82.820 E0.01681
G1 X104.778 Y97.180 E0.63843
G1 X105.312 Y97.180 E0.01681
G1 X90.952 Y82.820 E0.63843
G1 X91.487 Y82.820 E0.01681
G1 X105.847 Y97.180 E0.63843
G1 X106.382 Y97.180 E0.01681
G1 X92.022 Y82.820 E0.63843
G1 X92.556 Y82.820 E0.01681
G1 X106.916 Y97.180 E0.63843
G1 X107.451 Y97.180 E0.01681
G1 X93.091 Y82.820 E0.63843
G1 X93.626 Y82.820 E0.01681
G1 X107.986 Y97.180 E0.63843
G1 X108.520 Y97.180 E0.01681
G1 X94.160 Y82.820 E0.63843
M73 P1 R225
G1 X94.695 Y82.820 E0.01681
G1 X109.055 Y97.180 E0.63843
G1 X109.590 Y97.180 E0.01681
G1 X95.230 Y82.820 E0.63843
G1 X95.764 Y82.820 E0.01681
G1 X110.124 Y97.180 E0.63843
G1 X110.659 Y97.180 E0.01681
G1 X96.299 Y82.820 E0.63843
G1 X96.834 Y82.820 E0.01681
G1 X111.194 Y97.180 E0.63843
G1 X111.728 Y97.180 E0.01681
G1 X97.368 Y82.820 E0.63843
G1 X97.903 Y82.820 E0.01681
G1 X112.263 Y97.180 E0.63843
G1 X112.798 Y97.180 E0.01681
G1 X98.438 Y82.820 E0.63843
G1 X98.972 Y82.820 E0.01681
G1 X113.332 Y97.180 E0.63843
G1 X113.867 Y97.180 E0.01681
G1 X99.507 Y82.820 E0.63843
G1 X100.042 Y82.820 E0.01681
G1 X114.402 Y97.180 E0.63843
G1 X114.937 Y97.180 E0.01681
G1 X100.576 Y82.820 E0.63843
G1 X101.111 Y82.820 E0.01681
G1 X115.471 Y97.180 E0.63843
G1 X116.006 Y97.180 E0.01681
G1 X101.646 Y82.820 E0.63843
G1 X102.180 Y82.820 E0.01681
G1 X116.541 Y97.180 E0.63843
G1 X117.075 Y97.180 E0.01681
G1 X102.715 Y82.820 E0.63843
G1 X103.250 Y82.820 E0.01681
G1 X117.610 Y97.180 E0.63843
G1 X118.145 Y97.180 E0.01681
G1 X103.784 Y82.820 E0.63843
G1 X104.319 Y82.820 E0.01681
G1 X118.679 Y97.180 E0.63843
G1 X119.214 Y97.180 E0.01681
G1 X104.854 Y82.820 E0.63843
G1 X105.388 Y82.820 E0.01681
G1 X119.749 Y97.180 E0.63843
G1 X120.283 Y97.180 E0.01681
G1 X105.923 Y82.820 E0.63843
G1 X106.458 Y82.820 E0.01681
G1 X120.818 Y97.180 E0.63843
G1 X121.353 Y97.180 E0.01681
G1 X106.992 Y82.820 E0.63843
G1 X107.527 Y82.820 E0.01681
G1 X121.887 Y97.180 E0.63843
G1 X122.422 Y97.180 E0.01681
G1 X108.062 Y82.820 E0.63843
G1 X108.596 Y82.820 E0.01681
G1 X122.957 Y97.180 E0.63843
G1 X123.491 Y97.180 E0.01681
G1 X109.131 Y82.820 E0.63843
G1 X109.666 Y82.820 E0.01681
G1 X124.026 Y97.180 E0.63843
G1 X124.561 Y97.180 E0.01681
G1 X110.200 Y82.820 E0.63843
G1 X110.735 Y82.820 E0.01681
G1 X125.095 Y97.180 E0.63843
G1 X125.630 Y97.180 E0.01681
G1 X111.270 Y82.820 E0.63843
G1 X111.804 Y82.820 E0.01681
G1 X126.165 Y97.180 E0.63843
G1 X126.699 Y97.180 E0.01681
G1 X112.339 Y82.820 E0.63843
G1 X112.874 Y82.820 E0.01681
G1 X127.234 Y97.180 E0.63843
G1 X127.769 Y97.180 E0.01681
G1 X113.408 Y82.820 E0.63843
G1 X113.943 Y82.820 E0.01681
G1 X128.303 Y97.180 E0.63843
G1 X128.838 Y97.180 E0.01681
G1 X114.478 Y82.820 E0.63843
G1 X115.012 Y82.820 E0.01681
G1 X129.373 Y97.180 E0.63843
G1 X129.907 Y97.180 E0.01681
G1 X115.547 Y82.820 E0.63843
G1 X116.082 Y82.820 E0.01681
G1 X130.442 Y97.180 E0.63843
G1 X130.977 Y97.180 E0.01681
G1 X116.616 Y82.820 E0.63843
