; generated by PrusaSlicer 2.2.0+win64 on 2020-07-14 at 15:17:42 UTC


;
;

;
;
; 

; external perimeters extrusion width = 0.45mm
; perimeters extrusion width = 0.45mm
; infill extrusion width = 0.45mm
; solid infill extrusion width = 0.45mm
; top infill extrusion width = 0.40mm
; first layer extrusion width = 0.42mm

M73 P0 R121
M201 X1250 Y1250 Z400 E5000 ; sets maximum accelerations, mm/sec^2
M203 X180 Y180 Z12 E80 ; sets maximum feedrates, mm/sec
M204 P1250 R1250 T1250 ; sets acceleration (P, T) and retract acceleration (R), mm/sec^2
M205 X8.00 Y8.00 Z2.00 E10.00 ; sets the jerk limits, mm/sec
M205 S0 T0 ; sets the minimum extruding and travel feed rate, mm/sec
M107
G90 ; use absolute coordinates
M83 ; extruder relative mode
M104 S170 ; set extruder temp for bed leveling
M140 S60 ; set bed temp
M109 R170 ; wait for bed leveling temp
M190 S60 ; wait for bed temp
G28 ; home all without mesh bed level
G29 ; mesh bed leveling 
M104 S215 ; set extruder temp
G92 E0.0
G1 Y-2.0 X179 F2400
G1 Z3 F720
M109 S215 ; wait for extruder temp

; intro line
G1 X170 F1000
G1 Z0.2 F720
G1 X110.0 E8.0 F900
M73 P0 R121
G1 X40.0 E10.0 F700
G92 E0.0

M221 S95 ; set flow
G21 ; set units to millimeters
G90 ; use absolute coordinates
M83 ; use relative distances for extrusion
M900 K0.2 ; Filament gcode
;BEFORE_LAYER_CHANGE
G92 E0.0
;0.2


G1 Z0.200 F9000.000
;AFTER_LAYER_CHANGE
;0.2
G1 E-3.20000 F4200.00000
G1 Z0.400 F9000.000
G1 X82.459 Y83.778
G1 Z0.200
G1 E3.20000 F2400.00000
M204 S800
G1 F900
G1 X82.835 Y83.006 E0.02692
G1 X83.270 Y82.489 E0.02120
G1 X83.803 Y82.079 E0.02107
G1 X84.410 Y81.792 E0.02107
G1 X85.069 Y81.640 E0.02120
G1 X94.563 Y81.619 E0.29766
G1 X95.637 Y81.811 E0.03423
G1 X96.581 Y82.360 E0.03423
G1 X97.279 Y83.199 E0.03423
G1 X97.646 Y84.227 E0.03423
G1 X97.687 Y95.368 E0.34931
G1 X97.536 Y96.218 E0.02705
G1 X97.159 Y96.994 E0.02705
G1 X96.696 Y97.538 E0.02243
G1 X96.120 Y97.964 E0.02243
G1 X95.464 Y98.248 E0.02243
G1 X94.755 Y98.375 E0.02257
G1 X85.288 Y98.378 E0.29685
G1 X84.452 Y98.223 E0.02665
G1 X83.693 Y97.851 E0.02651
G1 X83.142 Y97.381 E0.02270
G1 X82.716 Y96.801 E0.02257
G1 X82.434 Y96.139 E0.02257
G1 X82.310 Y95.430 E0.02257
G1 X82.308 Y84.619 E0.33896
G1 X82.449 Y83.837 E0.02490
M204 S1250
G1 X82.819 Y83.905 F9000.000
M204 S800
G1 F900
G1 X83.168 Y83.188 E0.02499
G1 X83.555 Y82.739 E0.01860
G1 X84.029 Y82.382 E0.01860
G1 X84.569 Y82.136 E0.01860
G1 X85.149 Y82.011 E0.01860
G1 X94.562 Y81.996 E0.29515
G1 X95.518 Y82.168 E0.03044
G1 X96.354 Y82.662 E0.03044
G1 X96.967 Y83.414 E0.03044
G1 X97.281 Y84.333 E0.03044
G1 X97.311 Y95.348 E0.34539
G1 X97.173 Y96.117 E0.02447
G1 X96.827 Y96.812 E0.02434
G1 X96.413 Y97.286 E0.01975
G1 X95.905 Y97.653 E0.01963
G1 X95.328 Y97.895 E0.01963
G1 X94.707 Y98.000 E0.01975
G1 X85.313 Y98.001 E0.29452
G1 X84.562 Y97.862 E0.02396
G1 X83.874 Y97.519 E0.02409
G1 X83.400 Y97.104 E0.01975
G1 X83.032 Y96.593 E0.01975
G1 X82.789 Y96.011 E0.01975
G1 X82.685 Y95.386 E0.01988
G1 X82.684 Y84.643 E0.33682
G1 X82.808 Y83.964 E0.02166
M204 S1250
G1 X83.185 Y83.987 F9000.000
M204 S800
G1 F900
G1 X83.497 Y83.375 E0.02154
G1 X83.838 Y82.991 E0.01609
G1 X84.252 Y82.689 E0.01609
G1 X84.719 Y82.484 E0.01597
G1 X85.222 Y82.383 E0.01609
G1 X94.562 Y82.373 E0.29285
G1 X95.393 Y82.524 E0.02649
G1 X96.122 Y82.960 E0.02661
G1 X96.651 Y83.623 E0.02661
G1 X96.914 Y84.430 E0.02661
G1 X96.934 Y95.330 E0.34176
G1 X96.811 Y96.010 E0.02166
G1 X96.497 Y96.625 E0.02166
G1 X96.137 Y97.027 E0.01692
G1 X95.699 Y97.336 E0.01680
G1 X95.199 Y97.539 E0.01692
G1 X94.666 Y97.625 E0.01692
G1 X85.337 Y97.625 E0.29250
G1 X84.669 Y97.500 E0.02130
G1 X84.061 Y97.189 E0.02142
G1 X83.659 Y96.829 E0.01692
G1 X83.347 Y96.384 E0.01704
G1 X83.144 Y95.880 E0.01704
G1 X83.061 Y95.346 E0.01692
G1 X83.061 Y84.662 E0.33499
G1 X83.174 Y84.046 E0.01966
M204 S1250
G1 E-2.24000 F4200.00000
G1 F7200.000
G1 X83.497 Y83.375 E-0.41269
G1 X83.838 Y82.991 E-0.28441
G1 X84.151 Y82.762 E-0.21490
G1 E-0.04800 F4200.00000
G1 Z0.400 F9000.000
G1 X88.611 Y92.537
G1 Z0.200
G1 E3.20000 F2400.00000
M204 S800
G1 F900
G1 X91.376 Y92.537 E0.08668
G1 X91.376 Y94.463 E0.06038
G1 X88.611 Y94.463 E0.08668
G1 X88.611 Y92.597 E0.05850
M204 S1250
G1 X88.234 Y92.160 F9000.000
M204 S800
G1 F900
G1 X91.753 Y92.160 E0.11033
G1 X91.753 Y94.840 E0.08403
G1 X88.234 Y94.840 E0.11033
G1 X88.234 Y92.220 E0.08215
M204 S1250
G1 X88.625 Y92.246 F9000.000
G1 E-2.24000 F4200.00000
G1 F7200.000
G1 X89.880 Y92.192 E-0.91200
G1 E-0.04800 F4200.00000
G1 Z0.400 F9000.000
G1 X91.263 Y93.421
G1 Z0.200
G1 E3.20000 F2400.00000
M204 S800
G1 F900
G1 X90.661 Y92.820 E0.02696
G1 X90.122 Y92.820 E0.01709
G1 X91.093 Y93.791 E0.04353
G1 X91.093 Y94.180 E0.01234
G1 X90.943 Y94.180 E0.00475
G1 X89.583 Y92.820 E0.06098
G1 X89.044 Y92.820 E0.01709
G1 X90.404 Y94.180 E0.06098
G1 X89.865 Y94.180 E0.01709
G1 X88.894 Y93.209 E0.04352
G1 X88.894 Y93.749 E0.01709
G1 X89.496 Y94.350 E0.02696
M204 S1250
G1 E-2.24000 F4200.00000
G1 F7200.000
G1 X88.894 Y93.749 E-0.47124
G1 X88.894 Y93.209 E-0.29879
G1 X89.075 Y93.391 E-0.14197
G1 E-0.04800 F4200.00000
G1 Z0.400 F9000.000
G1 X88.611 Y87.463
G1 Z0.200
G1 E3.20000 F2400.00000
M204 S800
G1 F900
G1 X88.611 Y85.537 E0.06038
G1 X91.376 Y85.537 E0.08668
G1 X91.376 Y87.463 E0.06038
G1 X88.671 Y87.463 E0.08480
M204 S1250
G1 X88.234 Y87.840 F9000.000
M204 S800
G1 F900
G1 X88.234 Y85.160 E0.08403
G1 X91.753 Y85.160 E0.11033
G1 X91.753 Y87.840 E0.08403
G1 X88.294 Y87.840 E0.10844
M204 S1250
G1 X88.355 Y87.459 F9000.000
G1 E-2.24000 F4200.00000
G1 F7200.000
G1 X88.258 Y86.195 E-0.91200
G1 E-0.04800 F4200.00000
G1 Z0.400 F9000.000
G1 X91.263 Y86.421
G1 Z0.200
G1 E3.20000 F2400.00000
M204 S800
G1 F900
G1 X90.661 Y85.820 E0.02696
G1 X90.122 Y85.820 E0.01709
G1 X91.093 Y86.791 E0.04353
G1 X91.093 Y87.180 E0.01234
G1 X90.943 Y87.180 E0.00475
G1 X89.583 Y85.820 E0.06098
G1 X89.044 Y85.820 E0.01709
G1 X90.404 Y87.180 E0.06098
G1 X89.865 Y87.180 E0.01709
G1 X88.894 Y86.209 E0.04352
G1 X88.894 Y86.749 E0.01709
G1 X89.496 Y87.350 E0.02696
M204 S1250
M106 S255
;BEFORE_LAYER_CHANGE
G92 E0.0
;0.35


G1 Z0.350 F9000.000
;AFTER_LAYER_CHANGE
;0.35
G1 E-3.20000 F4200.00000
G1 Z0.550 F9000.000
G1 X95.637 Y81.811
G1 Z0.350
G1 E3.20000 F2400.00000
G1 F900
G1 X96.581 Y82.360 E0.02640
G1 X97.279 Y83.199 E0.02640
G1 X97.646 Y84.227 E0.02640
G1 X97.687 Y95.368 E0.26943
G1 X97.536 Y96.218 E0.02087
G1 X97.159 Y96.994 E0.02087
G1 X96.696 Y97.538 E0.01730
G1 X96.120 Y97.964 E0.01730
G1 X95.464 Y98.248 E0.01730
G1 X94.755 Y98.375 E0.01741
G1 X85.288 Y98.378 E0.22898
G1 X84.452 Y98.223 E0.02055
G1 X83.693 Y97.851 E0.02045
G1 X83.142 Y97.381 E0.01751
G1 X82.716 Y96.801 E0.01741
G1 X82.434 Y96.139 E0.01741
G1 X82.310 Y95.430 E0.01741
G1 X82.308 Y84.619 E0.26145
G1 X82.459 Y83.778 E0.02066
G1 X82.835 Y83.006 E0.02076
G1 X83.270 Y82.489 E0.01636
G1 X83.803 Y82.079 E0.01625
G1 X84.410 Y81.792 E0.01625
G1 X85.069 Y81.640 E0.01636
G1 X94.563 Y81.619 E0.22960
G1 X95.578 Y81.800 E0.02495
G1 X95.512 Y82.167 F9000.000
G1 F900
G1 X96.354 Y82.662 E0.02361
G1 X96.967 Y83.414 E0.02348
G1 X97.281 Y84.333 E0.02348
G1 X97.311 Y95.348 E0.26641
G1 X97.173 Y96.117 E0.01888
G1 X96.827 Y96.812 E0.01878
G1 X96.413 Y97.286 E0.01524
G1 X95.905 Y97.653 E0.01514
G1 X95.328 Y97.895 E0.01514
G1 X94.707 Y98.000 E0.01524
G1 X85.313 Y98.001 E0.22718
G1 X84.562 Y97.862 E0.01848
G1 X83.874 Y97.519 E0.01858
G1 X83.400 Y97.104 E0.01524
G1 X83.032 Y96.593 E0.01524
G1 X82.789 Y96.011 E0.01524
G1 X82.685 Y95.386 E0.01534
G1 X82.684 Y84.643 E0.25981
G1 X82.823 Y83.880 E0.01878
G1 X83.168 Y83.188 E0.01868
G1 X83.555 Y82.739 E0.01435
G1 X84.029 Y82.382 E0.01435
G1 X84.569 Y82.136 E0.01435
G1 X85.149 Y82.011 E0.01435
G1 X94.562 Y81.996 E0.22766
G1 X95.453 Y82.157 E0.02189
G1 X95.386 Y82.523 F9000.000
G1 F900
G1 X96.122 Y82.960 E0.02069
G1 X96.651 Y83.623 E0.02052
G1 X96.914 Y84.430 E0.02052
G1 X96.934 Y95.330 E0.26362
G1 X96.811 Y96.010 E0.01671
G1 X96.497 Y96.625 E0.01671
G1 X96.137 Y97.027 E0.01305
G1 X95.699 Y97.336 E0.01296
G1 X95.199 Y97.539 E0.01305
G1 X94.666 Y97.625 E0.01305
G1 X85.337 Y97.625 E0.22562
G1 X84.669 Y97.500 E0.01643
G1 X84.061 Y97.189 E0.01652
G1 X83.659 Y96.829 E0.01305
G1 X83.347 Y96.384 E0.01314
G1 X83.144 Y95.880 E0.01314
G1 X83.061 Y95.346 E0.01305
G1 X83.061 Y84.662 E0.25839
G1 X83.185 Y83.987 E0.01662
G1 X83.497 Y83.375 E0.01662
G1 X83.838 Y82.991 E0.01241
G1 X84.252 Y82.689 E0.01241
G1 X84.719 Y82.484 E0.01232
G1 X85.222 Y82.383 E0.01241
G1 X94.562 Y82.373 E0.22589
G1 X95.327 Y82.512 E0.01881
G1 E-2.24000 F4200.00000
G1 F7200.000
G1 X96.122 Y82.960 E-0.50538
G1 X96.580 Y83.533 E-0.40662
G1 E-0.04800 F4200.00000
G1 Z0.550 F9000.000
G1 X93.016 Y85.393
G1 Z0.350
G1 E3.20000 F2400.00000
M204 S800
G1 F900
G1 X93.016 Y87.607 E0.05770
G1 X86.982 Y87.607 E0.15721
G1 X86.982 Y85.393 E0.05770
G1 X92.956 Y85.393 E0.15565
M204 S1250
G1 X92.956 Y84.975 F9000.000
M204 S800
G1 F900
G1 X93.434 Y84.975 E0.01245
G1 X93.434 Y88.025 E0.07947
G1 X86.564 Y88.025 E0.17898
G1 X86.564 Y84.975 E0.07947
G1 X92.896 Y84.975 E0.16497
M204 S1250
G1 X93.205 Y85.288 F9000.000
G1 E-2.24000 F4200.00000
G1 F7200.000
G1 X93.434 Y84.975 E-0.29804
G1 X93.434 Y86.083 E-0.61396
G1 E-0.04800 F4200.00000
G1 Z0.550 F9000.000
G1 X92.890 Y87.252
G1 Z0.350
G1 E3.20000 F2400.00000
M204 S1000
G1 F1800.000
G1 X87.296 Y87.252 E0.37218
G1 X87.296 Y86.751 E0.03336
G1 X92.702 Y86.751 E0.35965
G1 X92.702 Y86.249 E0.03336
G1 X87.296 Y86.249 E0.35965
G1 X87.296 Y85.748 E0.03336
G1 X92.890 Y85.748 E0.37218
M204 S1250
G1 E-2.24000 F4200.00000
G1 F7200.000
G1 X91.245 Y85.748 E-0.91200
G1 E-0.04800 F4200.00000
G1 Z0.550 F9000.000
G1 X92.890 Y92.393
G1 Z0.350
G1 E3.20000 F2400.00000
M204 S800
G1 F900
G1 X93.016 Y92.393 E0.00327
G1 X93.016 Y94.607 E0.05770
G1 X86.982 Y94.607 E0.15721
G1 X86.982 Y92.393 E0.05770
G1 X92.830 Y92.393 E0.15238
M204 S1250
G1 X92.830 Y91.975 F9000.000
M204 S800
G1 F900
G1 X93.434 Y91.975 E0.01572
G1 X93.434 Y95.025 E0.07947
G1 X86.564 Y95.025 E0.17898
G1 X86.564 Y91.975 E0.07947
G1 X92.770 Y91.975 E0.16170
M204 S1250
G1 X93.080 Y92.287 F9000.000
G1 E-2.24000 F4200.00000
G1 F7200.000
G1 X93.434 Y91.975 E-0.36751
G1 X93.434 Y92.958 E-0.54449
G1 E-0.04800 F4200.00000
G1 Z0.550 F9000.000
G1 X92.890 Y94.252
G1 Z0.350
G1 E3.20000 F2400.00000
M204 S1000
G1 F1800.000
G1 X87.296 Y94.252 E0.37218
G1 X87.296 Y93.751 E0.03336
G1 X92.702 Y93.751 E0.35965
G1 X92.702 Y93.249 E0.03336
G1 X87.296 Y93.249 E0.35965
G1 X87.296 Y92.748 E0.03336
G1 X92.890 Y92.748 E0.37218
M204 S1250
;BEFORE_LAYER_CHANGE
G92 E0.0
;0.5


G1 Z0.500 F9000.000
;AFTER_LAYER_CHANGE
;0.5
G1 E-3.20000 F4200.00000
G1 Z0.700 F9000.000
G1 X97.279 Y83.199
G1 Z0.500
G1 E3.20000 F2400.00000
G1 F940
G1 X97.646 Y84.227 E0.02640
G1 X97.687 Y95.368 E0.26943
G1 X97.536 Y96.218 E0.02087
G1 X97.159 Y96.994 E0.02087
G1 X96.696 Y97.538 E0.01730
G1 X96.120 Y97.964 E0.01730
G1 X95.464 Y98.248 E0.01730
G1 X94.755 Y98.375 E0.01741
G1 X85.288 Y98.378 E0.22898
G1 X84.452 Y98.223 E0.02055
G1 X83.693 Y97.851 E0.02045
G1 X83.142 Y97.381 E0.01751
G1 X82.716 Y96.801 E0.01741
G1 X82.434 Y96.139 E0.01741
G1 X82.310 Y95.430 E0.01741
G1 X82.308 Y84.619 E0.26145
G1 X82.459 Y83.778 E0.02066
G1 X82.835 Y83.006 E0.02076
G1 X83.270 Y82.489 E0.01636
G1 X83.803 Y82.079 E0.01625
G1 X84.410 Y81.792 E0.01625
G1 X85.069 Y81.640 E0.01636
G1 X94.563 Y81.619 E0.22960
G1 X95.637 Y81.811 E0.02640
G1 X96.581 Y82.360 E0.02640
G1 X97.240 Y83.153 E0.02495
G1 X96.948 Y83.391 F9000.000
G1 F940
G1 X97.281 Y84.333 E0.02415
G1 X97.311 Y95.348 E0.26641
G1 X97.173 Y96.117 E0.01888
G1 X96.827 Y96.812 E0.01878
G1 X96.413 Y97.286 E0.01524
G1 X95.905 Y97.653 E0.01514
G1 X95.328 Y97.895 E0.01514
G1 X94.707 Y98.000 E0.01524
G1 X85.313 Y98.001 E0.22718
G1 X84.562 Y97.862 E0.01848
G1 X83.874 Y97.519 E0.01858
G1 X83.400 Y97.104 E0.01524
G1 X83.032 Y96.593 E0.01524
G1 X82.789 Y96.011 E0.01524
G1 X82.685 Y95.386 E0.01534
G1 X82.684 Y84.643 E0.25981
G1 X82.823 Y83.880 E0.01878
G1 X83.168 Y83.188 E0.01868
G1 X83.555 Y82.739 E0.01435
G1 X84.029 Y82.382 E0.01435
G1 X84.569 Y82.136 E0.01435
G1 X85.149 Y82.011 E0.01435
G1 X94.562 Y81.996 E0.22766
G1 X95.518 Y82.168 E0.02348
G1 X96.354 Y82.662 E0.02348
G1 X96.910 Y83.345 E0.02131
G1 X96.651 Y83.623 F9000.000
G1 F940
G1 X96.914 Y84.430 E0.02052
G1 X96.934 Y95.330 E0.26362
G1 X96.811 Y96.010 E0.01671
G1 X96.497 Y96.625 E0.01671
G1 X96.137 Y97.027 E0.01305
G1 X95.699 Y97.336 E0.01296
G1 X95.199 Y97.539 E0.01305
G1 X94.666 Y97.625 E0.01305
G1 X85.337 Y97.625 E0.22562
G1 X84.669 Y97.500 E0.01643
G1 X84.061 Y97.189 E0.01652
G1 X83.659 Y96.829 E0.01305
G1 X83.347 Y96.384 E0.01314
G1 X83.144 Y95.880 E0.01314
G1 X83.061 Y95.346 E0.01305
G1 X83.061 Y84.662 E0.25839
G1 X83.185 Y83.987 E0.01662
G1 X83.497 Y83.375 E0.01662
G1 X83.838 Y82.991 E0.01241
G1 X84.252 Y82.689 E0.01241
G1 X84.719 Y82.484 E0.01232
G1 X85.222 Y82.383 E0.01241
G1 X94.562 Y82.373 E0.22589
G1 X95.393 Y82.524 E0.02043
G1 X96.122 Y82.960 E0.02052
G1 X96.614 Y83.576 E0.01907
G1 E-2.24000 F4200.00000
G1 F7200.000
G1 X96.914 Y84.430 E-0.50156
G1 X96.915 Y85.171 E-0.41044
G1 E-0.04800 F4200.00000
G1 Z0.700 F9000.000
G1 X93.915 Y85.393
G1 Z0.500
G1 E3.20000 F2400.00000
M204 S800
G1 F940
G1 X93.915 Y87.607 E0.05770
G1 X86.079 Y87.607 E0.20419
G1 X86.079 Y85.393 E0.05770
G1 X93.855 Y85.393 E0.20262
M204 S1250
G1 X93.855 Y84.975 F9000.000
M204 S800
G1 F940
G1 X94.333 Y84.975 E0.01245
G1 X94.333 Y88.025 E0.07947
G1 X85.661 Y88.025 E0.22596
G1 X85.661 Y84.975 E0.07947
G1 X93.795 Y84.975 E0.21195
M204 S1250
G1 X94.095 Y85.295 F9000.000
G1 X93.790 Y86.232
M204 S1000
G1 F1800.000
G1 X92.663 Y85.707 E0.06498
G1 X91.598 Y85.707 E0.05562
G1 X93.602 Y86.641 E0.11549
G1 X93.602 Y87.137 E0.02594
G1 X90.868 Y85.863 E0.15757
G1 X90.868 Y86.359 E0.02594
G1 X92.871 Y87.293 E0.11547
G1 X91.807 Y87.293 E0.05562
G1 X90.680 Y86.768 E0.06496
M204 S1250
G1 X90.638 Y86.474 F9000.000
M204 S1000
G1 F940
G1 X89.870 Y85.706 E0.03183
G1 X89.548 Y85.706 E0.00943
G1 X89.548 Y86.049 E0.01006
G1 X90.450 Y86.951 E0.03738
M73 P0 R120
G1 X90.450 Y87.294 E0.01006
G1 X90.128 Y87.294 E0.00944
G1 X89.360 Y86.526 E0.03183
M204 S1250
G1 X89.114 Y87.482 F9000.000
M204 S1000
G1 F1800.000
G1 X89.114 Y85.707 E0.09315
G1 X88.663 Y85.707 E0.02366
G1 X88.663 Y87.293 E0.08326
G1 X88.212 Y87.293 E0.02366
G1 X88.212 Y85.707 E0.08326
G1 X87.761 Y85.707 E0.02366
G1 X87.761 Y87.293 E0.08326
G1 X87.310 Y87.293 E0.02366
G1 X87.310 Y85.707 E0.08326
G1 X86.860 Y85.707 E0.02366
G1 X86.860 Y87.293 E0.08326
G1 X86.409 Y87.293 E0.02366
G1 X86.409 Y85.518 E0.09315
M204 S1250
G1 E-2.24000 F4200.00000
G1 F7200.000
G1 X86.409 Y87.164 E-0.91200
G1 E-0.04800 F4200.00000
G1 Z0.700 F9000.000
G1 X86.409 Y92.393
G1 Z0.500
G1 E3.20000 F2400.00000
M204 S800
G1 F940
G1 X93.915 Y92.393 E0.19559
G1 X93.915 Y94.607 E0.05770
G1 X86.079 Y94.607 E0.20419
G1 X86.079 Y92.393 E0.05770
G1 X86.349 Y92.393 E0.00703
M204 S1250
G1 X86.349 Y91.975 F9000.000
M204 S800
G1 F940
G1 X94.333 Y91.975 E0.20804
G1 X94.333 Y95.025 E0.07947
G1 X85.661 Y95.025 E0.22596
G1 X85.661 Y91.975 E0.07947
G1 X86.289 Y91.975 E0.01635
M204 S1250
G1 X86.679 Y92.200 F9000.000
G1 X86.409 Y92.518
M204 S1000
G1 F1800.000
G1 X86.409 Y94.293 E0.09315
G1 X86.860 Y94.293 E0.02366
G1 X86.860 Y92.707 E0.08326
G1 X87.310 Y92.707 E0.02366
G1 X87.310 Y94.293 E0.08326
G1 X87.761 Y94.293 E0.02366
G1 X87.761 Y92.707 E0.08326
G1 X88.212 Y92.707 E0.02366
G1 X88.212 Y94.293 E0.08326
G1 X88.663 Y94.293 E0.02366
G1 X88.663 Y92.707 E0.08326
G1 X89.114 Y92.707 E0.02366
G1 X89.114 Y94.482 E0.09315
M204 S1250
G1 X89.360 Y93.526 F9000.000
M204 S1000
G1 F940
G1 X90.128 Y94.294 E0.03183
G1 X90.450 Y94.294 E0.00944
G1 X90.450 Y93.951 E0.01006
G1 X89.548 Y93.049 E0.03738
G1 X89.548 Y92.706 E0.01006
G1 X89.870 Y92.706 E0.00943
G1 X90.638 Y93.474 E0.03183
M204 S1250
G1 X90.680 Y93.768 F9000.000
M204 S1000
G1 F1800.000
G1 X91.807 Y94.293 E0.06496
G1 X92.871 Y94.293 E0.05562
G1 X90.868 Y93.359 E0.11547
G1 X90.868 Y92.863 E0.02594
G1 X93.602 Y94.137 E0.15757
G1 X93.602 Y93.641 E0.02594
G1 X91.598 Y92.707 E0.11549
G1 X92.663 Y92.707 E0.05562
G1 X93.790 Y93.232 E0.06498
M204 S1250
